%
(Prototype)
(T1  D=0.5 CR=0 - ZMIN=-0.1053 - flat end mill)
(T8  D=0.5 CR=0.25 - ZMIN=-0.3552 - ball end mill)
N0 G90
N1 G17
(2D Pocket1)
N2 T1 M6
N3 S2290 M3
N5 G0 X6.899 Y1.7578
N6 Z0.5906
N7 Z0.1969
N8 G1 Z0.1484 F18
N9 G3 X6.8985 Y1.7589 Z0.1375 I-0.222 J-0.0845
N10 X6.8972 Y1.7622 Z0.1272 I-0.2215 J-0.0856
N11 X6.895 Y1.7674 Z0.1178 I-0.2202 J-0.0889
N12 X6.8919 Y1.7744 Z0.1099 I-0.218 J-0.0942
N13 X6.8879 Y1.7826 Z0.1039 I-0.2149 J-0.1011
N14 X6.883 Y1.7915 Z0.1 I-0.2108 J-0.1093
N15 X6.8774 Y1.8008 Z0.0984 I-0.2059 J-0.1183
N16 X6.4767 Y1.5457 Z0.0724 I-0.2003 J-0.1276
N17 X6.8774 Y1.8008 Z0.0463 I0.2003 J0.1276
N18 X6.4767 Y1.5457 Z0.0203 I-0.2003 J-0.1276
N19 X6.8774 Y1.8008 Z-0.0058 I0.2003 J0.1276
N20 X6.4767 Y1.5457 Z-0.0319 I-0.2003 J-0.1276
N21 X6.8774 Y1.8008 Z-0.0579 I0.2003 J0.1276
N22 X6.4767 Y1.5457 Z-0.084 I-0.2003 J-0.1276
N23 X6.9145 Y1.6732 Z-0.1053 I0.2003 J0.1276
N24 X6.5518 I-0.1814 J0
N25 X6.9154 I0.1818 J0
N26 X6.0768 I-0.4193 J0
N27 X6.9154 I0.4193 J0
N28 X6.9141 Y1.6843 Z-0.1041 I-0.05 J0
N29 X6.9107 Y1.6942 Z-0.1004 I-0.0488 J-0.011
N30 X6.9059 Y1.7024 Z-0.0944 I-0.0454 J-0.021
N31 X6.9008 Y1.7085 Z-0.0865 I-0.0406 J-0.0292
N32 X6.8964 Y1.7124 Z-0.077 I-0.0355 J-0.0352
N33 X6.8934 Y1.7146 Z-0.0664 I-0.031 J-0.0392
N34 X6.8924 Y1.7153 Z-0.0553 I-0.0281 J-0.0414
N35 G0 Z0.5906
N37 M5
(Parallel1 (2))
N38 T8 M6
(T8 1/2 Ballnose)
N39 S3000 M3
N41 G0 X0.0456 Y-0.0253
N42 Z0.5906
N43 Z0.0778
N44 G1 Z0.05 F24
N45 X0.0453 Y-0.0252 Z0.0444
N46 X0.0445 Y-0.0247 Z0.0389
N47 X0.0432 Y-0.0239 Z0.0335
N48 X0.0413 Y-0.0229 Z0.0283
N49 X0.039 Y-0.0215 Z0.0234
N50 X0.0362 Y-0.0199 Z0.0188
N51 X0.0329 Y-0.018 Z0.0147
N52 X0.0293 Y-0.0159 Z0.0109
N53 X0.0253 Y-0.0137 Z0.0077
N54 X0.0211 Y-0.0112 Z0.005
N55 X0.0166 Y-0.0086 Z0.0028
N56 X0.012 Y-0.0059 Z0.0013
N57 X0.0072 Y-0.0032 Z0.0003
N58 X0.0023 Y-0.0004 Z0
N59 X-0.0003 Y0.0012
N60 X-0.0049 Y0.0038 Z0.0003
N61 X-0.0093 Y0.0064 Z0.0011
N62 X-0.0137 Y0.0089 Z0.0024
N63 X-0.018 Y0.0113 Z0.0043
N64 X-0.022 Y0.0137 Z0.0067
N65 X-0.0258 Y0.0159 Z0.0095
N66 X-0.0293 Y0.0179 Z0.0128
N67 X-0.0325 Y0.0198 Z0.0165
N68 X-0.0354 Y0.0214 Z0.0206
N69 X-0.0379 Y0.0228 Z0.025
N70 X-0.0399 Y0.024 Z0.0296
N71 X-0.0416 Y0.025 Z0.0345
N72 X-0.0427 Y0.0256 Z0.0396
N73 X-0.0434 Y0.0261 Z0.0448
N74 X-0.0437 Y0.0262 Z0.05
N75 G0 Z0.1969
N76 X-0.0511 Y0.3032
N77 Z-0.0145
N78 G1 Z-0.0342 F24
N79 X-0.0508 Y0.303 Z-0.0396
N80 X-0.0501 Y0.3026 Z-0.045
N81 X-0.0488 Y0.3018 Z-0.0503
N82 X-0.0471 Y0.3008 Z-0.0553
N83 X-0.0448 Y0.2995 Z-0.0601
N84 X-0.0422 Y0.298 Z-0.0646
N85 X-0.0391 Y0.2962 Z-0.0687
N86 X-0.0357 Y0.2942 Z-0.0725
N87 X-0.0319 Y0.2921 Z-0.0757
N88 X-0.0279 Y0.2897 Z-0.0785
N89 X-0.0236 Y0.2873 Z-0.0808
N90 X-0.0191 Y0.2847 Z-0.0825
N91 X-0.0145 Y0.282 Z-0.0836
N92 X-0.0098 Y0.2793 Z-0.0841
N93 X-0.0051 Y0.2766
N94 X-0.0004 Y0.2739 Z-0.0835
N95 X0.077 Y0.2292 Z-0.0679
N96 X0.1926 Y0.1625 Z-0.044
N97 X0.331 Y0.0826 Z-0.014
N98 X0.3599 Y0.0658 Z-0.0088
N99 X0.389 Y0.049 Z-0.0049
N100 X0.4182 Y0.0322 Z-0.0021
N101 X0.4475 Y0.0153 Z-0.0005
N102 X0.4746 Y-0.0004 Z0
N103 X0.4778 Y-0.0022 Z0.0003
N104 X0.4809 Y-0.004 Z0.0012
N105 X0.4838 Y-0.0057 Z0.0025
N106 X0.4869 Y-0.0074 Z0.004
N107 X0.4901 Y-0.0093 Z0.0048
N108 X0.4933 Y-0.0112 Z0.0051
N109 X0.8475 Y-0.2157
N110 G3 X0.95 Y-0.1882 I0.0375 J0.065
N111 G1 X0.9931 Y-0.1136
N112 G3 X0.9656 Y-0.0112 I-0.065 J0.0375
N113 G1 X0.9623 Y-0.0093 Z0.0048
N114 X0.9591 Y-0.0074 Z0.004
N115 X0.9561 Y-0.0057 Z0.0025
N116 X0.9531 Y-0.004 Z0.0012
N117 X0.95 Y-0.0022 Z0.0003
N118 X0.9469 Y-0.0004 Z0
N119 X0.9198 Y0.0153 Z-0.0005
N120 X0.8905 Y0.0322 Z-0.0021
N121 X0.8613 Y0.049 Z-0.0049
N122 X0.8322 Y0.0658 Z-0.0088
N123 X0.8033 Y0.0826 Z-0.014
N124 X0.6648 Y0.1625 Z-0.044
N125 X0.5493 Y0.2292 Z-0.0679
N126 X0.4465 Y0.2885 Z-0.0884
N127 X0.3436 Y0.348 Z-0.1081
N128 X0.2405 Y0.4074 Z-0.127
N129 X0.1374 Y0.467 Z-0.1451
N130 X0.0341 Y0.5266 Z-0.1624
N131 X-0.0004 Y0.5465 Z-0.1681
N132 X-0.0036 Y0.5484 Z-0.1683
N133 X-0.0068 Y0.5503 Z-0.168
N134 X-0.01 Y0.5521 Z-0.1671
N135 X-0.013 Y0.5538 Z-0.1658
N136 X-0.016 Y0.5556 Z-0.1644
N137 X-0.0192 Y0.5574 Z-0.1635
N138 X-0.0225 Y0.5593 Z-0.1632
N139 X-0.1399 Y0.6271
N140 X-0.1428 Y0.6288
N141 X-0.1456 Y0.6307 Z-0.1633
N142 X-0.1483 Y0.6327 Z-0.1634
N143 X-0.1509 Y0.6348 Z-0.1635
N144 X-0.1534 Y0.637 Z-0.1637
N145 X-0.1559 Y0.6393 Z-0.164
N146 X-0.1582 Y0.6417 Z-0.1642
N147 X-0.1604 Y0.6442 Z-0.1645
N148 X-0.1625 Y0.6468 Z-0.1649
N149 X-0.1645 Y0.6495 Z-0.1653
N150 X-0.1664 Y0.6523 Z-0.1657
N151 X-0.1681 Y0.6551 Z-0.1662
N152 X-0.1697 Y0.6581 Z-0.1666
N153 X-0.1712 Y0.661 Z-0.1672
N154 X-0.1725 Y0.6641 Z-0.1677
N155 X-0.1737 Y0.6672 Z-0.1683
N156 X-0.1748 Y0.6703 Z-0.169
N157 X-0.1757 Y0.6735 Z-0.1696
N158 X-0.1765 Y0.6767 Z-0.1703
N159 X-0.1771 Y0.6799 Z-0.171
N160 X-0.1776 Y0.6831 Z-0.1718
N161 X-0.1779 Y0.6864 Z-0.1725
N162 X-0.1781 Y0.6897 Z-0.1733
N163 Y0.6929 Z-0.1741
N164 X-0.178 Y0.6962 Z-0.175
N165 X-0.1777 Y0.6994 Z-0.1758
N166 X-0.1773 Y0.7027 Z-0.1767
N167 X-0.1768 Y0.7059 Z-0.1776
N168 X-0.176 Y0.709 Z-0.1784
N169 X-0.1752 Y0.7122 Z-0.1793
N170 X-0.1742 Y0.7152 Z-0.1803
N171 X-0.1731 Y0.7183 Z-0.1812
N172 X-0.1718 Y0.7212 Z-0.1821
N173 X-0.1704 Y0.7242 Z-0.183
N174 X-0.1688 Y0.727 Z-0.184
N175 X-0.1228 Y0.8067 Z-0.2105
N176 X-0.1211 Y0.8094 Z-0.2114
N177 X-0.1193 Y0.8121 Z-0.2123
N178 X-0.1174 Y0.8147 Z-0.2132
N179 X-0.1153 Y0.8172 Z-0.2142
N180 X-0.1132 Y0.8196 Z-0.2151
N181 X-0.1109 Y0.8219 Z-0.216
N182 X-0.1085 Y0.8241 Z-0.2169
N183 X-0.106 Y0.8262 Z-0.2177
N184 X-0.1034 Y0.8282 Z-0.2186
N185 X-0.1007 Y0.83 Z-0.2195
N186 X-0.098 Y0.8318 Z-0.2203
N187 X-0.0951 Y0.8334 Z-0.2211
N188 X-0.0922 Y0.8348 Z-0.2219
N189 X-0.0892 Y0.8362 Z-0.2227
N190 X-0.0862 Y0.8374 Z-0.2234
N191 X-0.0831 Y0.8385 Z-0.2241
N192 X-0.0799 Y0.8394 Z-0.2248
N193 X-0.0767 Y0.8402 Z-0.2255
N194 X-0.0734 Y0.8408 Z-0.2261
N195 X-0.0702 Y0.8413 Z-0.2267
N196 X-0.0669 Y0.8417 Z-0.2272
N197 X-0.0636 Y0.8419 Z-0.2278
N198 X-0.0602 Y0.842 Z-0.2283
N199 X-0.0569 Y0.8419 Z-0.2287
N200 X-0.0536 Y0.8417 Z-0.2292
N201 X-0.0502 Y0.8413 Z-0.2295
N202 X-0.0469 Y0.8408 Z-0.2299
N203 X-0.0437 Y0.8401 Z-0.2302
N204 X-0.0404 Y0.8393 Z-0.2305
N205 X-0.0372 Y0.8384 Z-0.2307
N206 X-0.034 Y0.8373 Z-0.2309
N207 X-0.0309 Y0.8361 Z-0.231
N208 X-0.0278 Y0.8347 Z-0.2311
N209 X-0.0248 Y0.8332 Z-0.2312
N210 X-0.0218 Y0.8316
N211 X-0.0185 Y0.8297 Z-0.2315
N212 X-0.0153 Y0.8278 Z-0.2324
N213 X-0.0123 Y0.8261 Z-0.2338
N214 X-0.0095 Y0.8244 Z-0.2351
N215 X-0.0065 Y0.8227 Z-0.2359
N216 X-0.0034 Y0.821 Z-0.2363
N217 X-0.0004 Y0.8192 Z-0.2362
N218 X0.0407 Y0.7955 Z-0.2309
N219 X0.1832 Y0.7132 Z-0.2116
N220 X0.2996 Y0.646 Z-0.1947
N221 X0.4031 Y0.5863 Z-0.179
N222 X0.5064 Y0.5266 Z-0.1624
N223 X0.6097 Y0.467 Z-0.1451
N224 X0.7128 Y0.4074 Z-0.127
N225 X0.8158 Y0.348 Z-0.1081
N226 X0.9188 Y0.2885 Z-0.0884
N227 X1.0216 Y0.2292 Z-0.0679
N228 X1.1371 Y0.1625 Z-0.044
N229 X1.2755 Y0.0826 Z-0.014
N230 X1.3045 Y0.0658 Z-0.0088
N231 X1.3336 Y0.049 Z-0.0049
N232 X1.3628 Y0.0322 Z-0.0021
N233 X1.392 Y0.0153 Z-0.0005
N234 X1.4192 Y-0.0004 Z0
N235 X1.4223 Y-0.0022 Z0.0003
N236 X1.4254 Y-0.004 Z0.0012
N237 X1.4284 Y-0.0057 Z0.0025
N238 X1.4314 Y-0.0074 Z0.004
N239 X1.4346 Y-0.0093 Z0.0048
N240 X1.4379 Y-0.0112 Z0.0051
N241 X1.7921 Y-0.2157
N242 G3 X1.8946 Y-0.1882 I0.0375 J0.065
N243 G1 X1.9376 Y-0.1136
N244 G3 X1.9102 Y-0.0112 I-0.065 J0.0375
N245 G1 X1.9069 Y-0.0093 Z0.0048
N246 X1.9037 Y-0.0074 Z0.004
N247 X1.9006 Y-0.0057 Z0.0025
N248 X1.8977 Y-0.004 Z0.0012
N249 X1.8946 Y-0.0022 Z0.0003
N250 X1.8914 Y-0.0004 Z0
N251 X1.8643 Y0.0153 Z-0.0005
N252 X1.8351 Y0.0322 Z-0.0021
N253 X1.8059 Y0.049 Z-0.0049
N254 X1.7768 Y0.0658 Z-0.0088
N255 X1.7478 Y0.0826 Z-0.014
N256 X1.6094 Y0.1625 Z-0.044
N257 X1.4939 Y0.2292 Z-0.0679
N258 X1.3911 Y0.2885 Z-0.0884
N259 X1.2881 Y0.348 Z-0.1081
N260 X1.1851 Y0.4074 Z-0.127
N261 X1.0819 Y0.467 Z-0.1451
N262 X0.9787 Y0.5266 Z-0.1624
N263 X0.8753 Y0.5863 Z-0.179
N264 X0.7719 Y0.646 Z-0.1947
N265 X0.6684 Y0.7058 Z-0.2098
N266 X0.5518 Y0.7731 Z-0.2258
N267 X0.4092 Y0.8554 Z-0.2441
N268 X0.2795 Y0.9303 Z-0.2594
N269 X0.1626 Y0.9978 Z-0.2722
N270 X0.0457 Y1.0653 Z-0.2841
N271 X-0.0004 Y1.0919 Z-0.2886
N272 X-0.0033 Y1.0936 Z-0.2887
N273 X-0.0062 Y1.0952 Z-0.2883
N274 X-0.009 Y1.0969 Z-0.2874
N275 X-0.0118 Y1.0984 Z-0.2861
N276 X-0.0148 Y1.1002 Z-0.2847
N277 X-0.018 Y1.1021 Z-0.2839
N278 X-0.0213 Y1.1039 Z-0.2836
N279 X-0.1388 Y1.1718
N280 X-0.1416 Y1.1735
N281 X-0.1444 Y1.1754
N282 X-0.1471 Y1.1774 Z-0.2837
N283 X-0.1498 Y1.1795 Z-0.2838
N284 X-0.1523 Y1.1817 Z-0.2839
N285 X-0.1547 Y1.1841 Z-0.284
N286 X-0.157 Y1.1865 Z-0.2842
N287 X-0.1592 Y1.189 Z-0.2843
N288 X-0.1613 Y1.1917 Z-0.2845
N289 X-0.1633 Y1.1944 Z-0.2847
N290 X-0.1651 Y1.1972 Z-0.285
N291 X-0.1668 Y1.2001 Z-0.2852
N292 X-0.1684 Y1.203 Z-0.2855
N293 X-0.1699 Y1.2061 Z-0.2858
N294 X-0.1712 Y1.2092 Z-0.2861
N295 X-0.1723 Y1.2123 Z-0.2865
N296 X-0.1734 Y1.2155 Z-0.2868
N297 X-0.1743 Y1.2187 Z-0.2872
N298 X-0.175 Y1.222 Z-0.2876
N299 X-0.1756 Y1.2252 Z-0.288
N300 X-0.176 Y1.2286 Z-0.2884
N301 X-0.1763 Y1.2319 Z-0.2888
N302 X-0.1765 Y1.2352 Z-0.2892
N303 Y1.2386 Z-0.2897
N304 X-0.1763 Y1.2419 Z-0.2902
N305 X-0.176 Y1.2452 Z-0.2906
N306 X-0.1755 Y1.2485 Z-0.2911
N307 X-0.1749 Y1.2518 Z-0.2916
N308 X-0.1742 Y1.255 Z-0.2921
N309 X-0.1733 Y1.2582 Z-0.2926
N310 X-0.1722 Y1.2614 Z-0.2931
N311 X-0.171 Y1.2645 Z-0.2936
N312 X-0.1697 Y1.2675 Z-0.2941
N313 X-0.1683 Y1.2705 Z-0.2947
N314 X-0.1667 Y1.2734 Z-0.2952
N315 X-0.1227 Y1.3496 Z-0.3089
N316 X-0.121 Y1.3524 Z-0.3095
N317 X-0.1191 Y1.3552 Z-0.31
N318 X-0.1171 Y1.3579 Z-0.3105
N319 X-0.115 Y1.3605 Z-0.311
N320 X-0.1128 Y1.3629 Z-0.3115
N321 X-0.1105 Y1.3653 Z-0.312
N322 X-0.1081 Y1.3676 Z-0.3125
N323 X-0.1055 Y1.3698 Z-0.313
N324 X-0.1029 Y1.3718 Z-0.3135
N325 X-0.1002 Y1.3737 Z-0.314
N326 X-0.0974 Y1.3755 Z-0.3144
N327 X-0.0945 Y1.3772 Z-0.3149
N328 X-0.0915 Y1.3787 Z-0.3153
N329 X-0.0885 Y1.3802 Z-0.3158
N330 X-0.0854 Y1.3814 Z-0.3162
N331 X-0.0823 Y1.3826 Z-0.3166
N332 X-0.0791 Y1.3836 Z-0.3169
N333 X-0.0758 Y1.3844 Z-0.3173
N334 X-0.0726 Y1.3851 Z-0.3177
N335 X-0.0693 Y1.3857 Z-0.318
N336 X-0.0659 Y1.3861 Z-0.3183
N337 X-0.0626 Y1.3863 Z-0.3186
N338 X-0.0593 Y1.3864 Z-0.3189
N339 X-0.0559 Z-0.3191
N340 X-0.0525 Y1.3862 Z-0.3194
N341 X-0.0492 Y1.3858 Z-0.3196
N342 X-0.0459 Y1.3854 Z-0.3198
N343 X-0.0426 Y1.3847 Z-0.32
N344 X-0.0393 Y1.3839 Z-0.3201
N345 X-0.0361 Y1.383 Z-0.3202
N346 X-0.0329 Y1.3819 Z-0.3203
N347 X-0.0297 Y1.3807 Z-0.3204
N348 X-0.0267 Y1.3794 Z-0.3205
N349 X-0.0236 Y1.3779
N350 X-0.0207 Y1.3763
N351 X-0.0174 Y1.3744 Z-0.3208
N352 X-0.0142 Y1.3725 Z-0.3217
N353 X-0.0112 Y1.3708 Z-0.3231
N354 X-0.0086 Y1.3693 Z-0.3243
N355 X-0.0059 Y1.3677 Z-0.3251
N356 X-0.0032 Y1.3662 Z-0.3256
N357 X-0.0004 Y1.3646
N358 X0.1147 Y1.2981 Z-0.3179
N359 X0.2319 Y1.2304 Z-0.3093
N360 X0.362 Y1.1553 Z-0.2986
N361 X0.505 Y1.0728 Z-0.2854
N362 X0.6219 Y1.0053 Z-0.2736
N363 X0.7388 Y0.9378 Z-0.2608
N364 X0.8556 Y0.8704 Z-0.2472
N365 X0.9852 Y0.7955 Z-0.231
N366 X1.1277 Y0.7132 Z-0.2116
N367 X1.2442 Y0.646 Z-0.1948
N368 X1.3476 Y0.5863 Z-0.179
N369 X1.451 Y0.5266 Z-0.1624
N370 X1.5542 Y0.467 Z-0.1451
N371 X1.6574 Y0.4074 Z-0.127
N372 X1.7604 Y0.348 Z-0.1081
N373 X1.8633 Y0.2885 Z-0.0884
N374 X1.9661 Y0.2292 Z-0.0679
N375 X2.0817 Y0.1625 Z-0.044
N376 X2.2201 Y0.0826 Z-0.014
N377 X2.2491 Y0.0658 Z-0.0088
N378 X2.2782 Y0.049 Z-0.0049
N379 X2.3073 Y0.0322 Z-0.0021
N380 X2.3366 Y0.0153 Z-0.0005
N381 X2.3637 Y-0.0004 Z0
N382 X2.3669 Y-0.0022 Z0.0003
N383 X2.37 Y-0.004 Z0.0012
N384 X2.3729 Y-0.0057 Z0.0025
N385 X2.376 Y-0.0074 Z0.004
N386 X2.3792 Y-0.0093 Z0.0048
N387 X2.3824 Y-0.0112 Z0.0051
N388 X2.7367 Y-0.2157
N389 G3 X2.8391 Y-0.1882 I0.0375 J0.065
N390 G1 X2.8822 Y-0.1136
N391 G3 X2.8547 Y-0.0112 I-0.065 J0.0375
N392 G1 X2.8515 Y-0.0093 Z0.0048
N393 X2.8482 Y-0.0074 Z0.004
N394 X2.8452 Y-0.0057 Z0.0025
N395 X2.8422 Y-0.004 Z0.0012
N396 X2.8392 Y-0.0022 Z0.0003
N397 X2.836 Y-0.0004 Z0
N398 X2.8089 Y0.0153 Z-0.0005
N399 X2.7796 Y0.0322 Z-0.0021
N400 X2.7504 Y0.049 Z-0.0049
N401 X2.7213 Y0.0658 Z-0.0088
N402 X2.6924 Y0.0826 Z-0.014
N403 X2.554 Y0.1625 Z-0.044
N404 X2.4384 Y0.2292 Z-0.0679
N405 X2.3356 Y0.2885 Z-0.0884
N406 X2.2327 Y0.348 Z-0.1081
N407 X2.1296 Y0.4074 Z-0.127
N408 X2.0265 Y0.467 Z-0.1451
N409 X1.9232 Y0.5266 Z-0.1624
N410 X1.8199 Y0.5863 Z-0.179
N411 X1.7035 Y0.6535 Z-0.1967
N412 X1.5612 Y0.7357 Z-0.2171
N413 X1.4316 Y0.8105 Z-0.2343
N414 X1.3149 Y0.8778 Z-0.2488
N415 X1.1981 Y0.9453 Z-0.2623
N416 X1.0812 Y1.0128 Z-0.2749
N417 X0.9383 Y1.0953 Z-0.2892
N418 X0.7952 Y1.1779 Z-0.3019
N419 X0.6782 Y1.2455 Z-0.3113
N420 X0.574 Y1.3056 Z-0.3189
N421 X0.4699 Y1.3657 Z-0.3257
N422 X0.3526 Y1.4334 Z-0.3326
N423 X0.2093 Y1.5162 Z-0.3398
N424 X0.0659 Y1.5989 Z-0.3455
N425 X-0.0004 Y1.6372 Z-0.3478
N426 X-0.003 Y1.6387 Z-0.3477
N427 X-0.0056 Y1.6402 Z-0.3472
N428 X-0.0081 Y1.6417 Z-0.3464
N429 X-0.0106 Y1.6431 Z-0.3452
N430 X-0.0136 Y1.6449 Z-0.3438
N431 X-0.0168 Y1.6467 Z-0.343
N432 X-0.0201 Y1.6486 Z-0.3427
N433 X-0.1376 Y1.7164
N434 X-0.1405 Y1.7182
N435 X-0.1433 Y1.7201
N436 X-0.146 Y1.7221
N437 X-0.1486 Y1.7242
N438 X-0.1511 Y1.7264
N439 X-0.1535 Y1.7287 Z-0.3428
N440 X-0.1558 Y1.7312
N441 X-0.158 Y1.7337
N442 X-0.1601 Y1.7364 Z-0.3429
N443 X-0.1621 Y1.7391
N444 X-0.1639 Y1.742 Z-0.343
N445 X-0.1656 Y1.7449
N446 X-0.1672 Y1.7478 Z-0.3431
N447 X-0.1686 Y1.7509
N448 X-0.1699 Y1.754 Z-0.3432
N449 X-0.1711 Y1.7571 Z-0.3433
N450 X-0.1721 Y1.7603
N451 X-0.173 Y1.7636 Z-0.3434
N452 X-0.1737 Y1.7669 Z-0.3435
N453 X-0.1743 Y1.7702 Z-0.3436
N454 X-0.1747 Y1.7735
N455 X-0.175 Y1.7769 Z-0.3437
N456 X-0.1751 Y1.7802 Z-0.3438
N457 Y1.7836 Z-0.3439
N458 X-0.1749 Y1.787 Z-0.344
N459 X-0.1746 Y1.7903 Z-0.3441
N460 X-0.1741 Y1.7936 Z-0.3442
N461 X-0.1735 Y1.797 Z-0.3443
N462 X-0.1727 Y1.8002 Z-0.3444
N463 X-0.1718 Y1.8035 Z-0.3445
N464 X-0.1707 Y1.8067 Z-0.3446
N465 X-0.1695 Y1.8098 Z-0.3447
N466 X-0.1682 Y1.8129 Z-0.3448
N467 X-0.1667 Y1.8159 Z-0.3449
N468 X-0.1651 Y1.8189 Z-0.345
N469 X-0.122 Y1.8935 Z-0.3477
N470 X-0.1202 Y1.8964 Z-0.3478
N471 X-0.1183 Y1.8992 Z-0.3479
N472 X-0.1163 Y1.9019 Z-0.348
N473 X-0.1142 Y1.9045 Z-0.3481
N474 X-0.112 Y1.907 Z-0.3482
N475 X-0.1096 Y1.9094 Z-0.3483
N476 X-0.1072 Y1.9117 Z-0.3484
N477 X-0.1046 Y1.9139 Z-0.3485
N478 X-0.102 Y1.916 Z-0.3486
N479 X-0.0993 Y1.918 Z-0.3487
N480 X-0.0964 Y1.9198 Z-0.3488
N481 X-0.0935 Y1.9215 Z-0.3489
N482 X-0.0906 Y1.9231
N483 X-0.0875 Y1.9245 Z-0.349
N484 X-0.0844 Y1.9258 Z-0.3491
N485 X-0.0813 Y1.927 Z-0.3492
N486 X-0.078 Y1.928 Z-0.3493
N487 X-0.0748 Y1.9289
N488 X-0.0715 Y1.9296 Z-0.3494
N489 X-0.0682 Y1.9302 Z-0.3495
N490 X-0.0649 Y1.9306
N491 X-0.0615 Y1.9309 Z-0.3496
N492 X-0.0581 Y1.931 Z-0.3497
N493 X-0.0548
N494 X-0.0514 Y1.9308 Z-0.3498
N495 X-0.0481 Y1.9304
N496 X-0.0447 Y1.93
N497 X-0.0414 Y1.9293 Z-0.3499
N498 X-0.0381 Y1.9286
N499 X-0.0349 Y1.9276
N500 X-0.0317 Y1.9266
N501 X-0.0286 Y1.9254 Z-0.35
N502 X-0.0255 Y1.924
N503 X-0.0225 Y1.9226
N504 X-0.0195 Y1.9209
N505 X-0.0162 Y1.919 Z-0.3503
N506 X-0.013 Y1.9172 Z-0.3511
N507 X-0.01 Y1.9154 Z-0.3525
N508 X-0.0069 Y1.9137 Z-0.354
N509 X-0.0037 Y1.9118 Z-0.3548
N510 X-0.0004 Y1.9099 Z-0.3551
N511 X0.1075 Y1.8476 Z-0.3547
N512 X0.2473 Y1.7669 Z-0.3531
N513 X0.3936 Y1.6824 Z-0.35
N514 X0.5121 Y1.614 Z-0.3464
N515 X0.6294 Y1.5463 Z-0.342
N516 X0.7467 Y1.4785 Z-0.3367
N517 X0.89 Y1.3958 Z-0.329
N518 X1.0333 Y1.3131 Z-0.3198
N519 X1.1504 Y1.2455 Z-0.3113
N520 X1.2675 Y1.1779 Z-0.3019
N521 X1.3846 Y1.1103 Z-0.2915
N522 X1.5405 Y1.0202 Z-0.2763
N523 X1.6704 Y0.9453 Z-0.2623
N524 X1.7872 Y0.8778 Z-0.2488
N525 X1.9039 Y0.8105 Z-0.2343
N526 X2.0334 Y0.7357 Z-0.2171
N527 X2.1758 Y0.6535 Z-0.1967
N528 X2.2922 Y0.5863 Z-0.179
N529 X2.3955 Y0.5266 Z-0.1624
N530 X2.4988 Y0.467 Z-0.1451
N531 X2.6019 Y0.4074 Z-0.127
N532 X2.705 Y0.348 Z-0.1081
N533 X2.8079 Y0.2885 Z-0.0884
N534 X2.9107 Y0.2292 Z-0.0679
N535 X3.0262 Y0.1625 Z-0.044
N536 X3.1646 Y0.0826 Z-0.014
N537 X3.1936 Y0.0658 Z-0.0088
N538 X3.2227 Y0.049 Z-0.0049
N539 X3.2519 Y0.0322 Z-0.0021
N540 X3.2812 Y0.0153 Z-0.0005
N541 X3.3083 Y-0.0004 Z0
N542 X3.3114 Y-0.0022 Z0.0003
N543 X3.3145 Y-0.004 Z0.0012
N544 X3.3175 Y-0.0057 Z0.0025
N545 X3.3205 Y-0.0074 Z0.004
N546 X3.3237 Y-0.0093 Z0.0048
N547 X3.327 Y-0.0112 Z0.0051
N548 X3.6812 Y-0.2157
N549 G3 X3.7837 Y-0.1882 I0.0375 J0.065
N550 G1 X3.8267 Y-0.1136
N551 G3 X3.7993 Y-0.0112 I-0.065 J0.0375
N552 G1 X3.796 Y-0.0093 Z0.0048
N553 X3.7928 Y-0.0074 Z0.004
N554 X3.7898 Y-0.0057 Z0.0025
N555 X3.7868 Y-0.004 Z0.0012
N556 X3.7837 Y-0.0022 Z0.0003
N557 X3.7805 Y-0.0004 Z0
N558 X3.7534 Y0.0153 Z-0.0005
N559 X3.7242 Y0.0322 Z-0.0021
N560 X3.695 Y0.049 Z-0.0049
N561 X3.6659 Y0.0658 Z-0.0088
N562 X3.6369 Y0.0826 Z-0.014
N563 X3.4985 Y0.1625 Z-0.044
N564 X3.383 Y0.2292 Z-0.0679
N565 X3.2802 Y0.2885 Z-0.0884
N566 X3.1772 Y0.348 Z-0.1081
N567 X3.0742 Y0.4074 Z-0.127
N568 X2.9711 Y0.467 Z-0.1451
N569 X2.8678 Y0.5266 Z-0.1624
N570 X2.7644 Y0.5863 Z-0.179
N571 X2.6481 Y0.6535 Z-0.1967
N572 X2.5057 Y0.7357 Z-0.2171
N573 X2.3761 Y0.8105 Z-0.2343
N574 X2.2465 Y0.8853 Z-0.2503
N575 X2.1167 Y0.9603 Z-0.2652
N576 X1.9608 Y1.0503 Z-0.2816
N577 X1.8308 Y1.1253 Z-0.2939
N578 X1.7008 Y1.2004 Z-0.3051
N579 X1.5446 Y1.2905 Z-0.3171
N580 X1.4274 Y1.3582 Z-0.3249
N581 X1.3102 Y1.4259 Z-0.3319
N582 X1.1929 Y1.4936 Z-0.3379
N583 X1.0496 Y1.5764 Z-0.3441
N584 X0.9058 Y1.6594 Z-0.3489
N585 X0.7796 Y1.7323 Z-0.352
N586 X0.6598 Y1.8014 Z-0.3539
N587 X0.52 Y1.8821 Z-0.3551
N588 X0.3756 Y1.9655 Z-0.3548
N589 X0.2559 Y2.0346 Z-0.3536
N590 X0.1436 Y2.0994 Z-0.3516
N591 X0.0323 Y2.1637 Z-0.3487
N592 X-0.0004 Y2.1826 Z-0.3478
N593 X-0.0035 Y2.1843 Z-0.3475
N594 X-0.0065 Y2.1861 Z-0.3466
N595 X-0.0094 Y2.1878 Z-0.3453
N596 X-0.0124 Y2.1895 Z-0.3439
N597 X-0.0156 Y2.1914 Z-0.343
N598 X-0.0189 Y2.1933 Z-0.3427
N599 X-0.1364 Y2.2611
N600 X-0.1393 Y2.2628
N601 X-0.1421 Y2.2647
N602 X-0.1448 Y2.2667 Z-0.3426
N603 X-0.1474 Y2.2688
N604 X-0.1499 Y2.2711 Z-0.3425
N605 X-0.1523 Y2.2734
N606 X-0.1547 Y2.2758 Z-0.3424
N607 X-0.1568 Y2.2784 Z-0.3423
N608 X-0.1589 Y2.281 Z-0.3421
N609 X-0.1609 Y2.2838 Z-0.342
N610 X-0.1627 Y2.2866 Z-0.3419
N611 X-0.1644 Y2.2895 Z-0.3417
N612 X-0.166 Y2.2924 Z-0.3416
N613 X-0.1675 Y2.2955 Z-0.3414
N614 X-0.1688 Y2.2986 Z-0.3412
N615 X-0.1699 Y2.3017 Z-0.341
N616 X-0.1709 Y2.3049 Z-0.3408
N617 X-0.1718 Y2.3082 Z-0.3406
N618 X-0.1725 Y2.3115 Z-0.3403
N619 X-0.1731 Y2.3148 Z-0.3401
N620 X-0.1736 Y2.3181 Z-0.3398
N621 X-0.1738 Y2.3214 Z-0.3396
N622 X-0.174 Y2.3248 Z-0.3393
N623 Y2.3281 Z-0.339
N624 X-0.1738 Y2.3315 Z-0.3388
N625 X-0.1735 Y2.3348 Z-0.3385
N626 X-0.173 Y2.3381 Z-0.3382
N627 X-0.1724 Y2.3414 Z-0.3379
N628 X-0.1716 Y2.3447 Z-0.3376
N629 X-0.1707 Y2.3479 Z-0.3373
N630 X-0.1696 Y2.3511 Z-0.337
N631 X-0.1684 Y2.3542 Z-0.3367
N632 X-0.1671 Y2.3573 Z-0.3364
N633 X-0.1656 Y2.3603 Z-0.336
N634 X-0.164 Y2.3633 Z-0.3357
N635 X-0.1206 Y2.4384 Z-0.3276
N636 X-0.1189 Y2.4413 Z-0.3273
N637 X-0.117 Y2.4441 Z-0.327
N638 X-0.115 Y2.4468 Z-0.3267
N639 X-0.1129 Y2.4494 Z-0.3264
N640 X-0.1107 Y2.4519 Z-0.3261
N641 X-0.1084 Y2.4543 Z-0.3258
N642 X-0.1059 Y2.4566 Z-0.3255
N643 X-0.1034 Y2.4588 Z-0.3252
N644 X-0.1007 Y2.4608 Z-0.3249
N645 X-0.098 Y2.4628 Z-0.3246
N646 X-0.0952 Y2.4646 Z-0.3243
N647 X-0.0923 Y2.4663 Z-0.324
N648 X-0.0893 Y2.4678 Z-0.3238
N649 X-0.0863 Y2.4693 Z-0.3235
N650 X-0.0832 Y2.4706 Z-0.3233
N651 X-0.08 Y2.4717 Z-0.323
N652 X-0.0768 Y2.4727 Z-0.3228
N653 X-0.0736 Y2.4736 Z-0.3226
N654 X-0.0703 Y2.4743 Z-0.3224
N655 X-0.067 Y2.4749 Z-0.3222
N656 X-0.0636 Y2.4753 Z-0.322
N657 X-0.0603 Y2.4756 Z-0.3218
N658 X-0.0569 Y2.4757 Z-0.3216
N659 X-0.0536 Y2.4756 Z-0.3215
N660 X-0.0502 Y2.4755 Z-0.3213
N661 X-0.0469 Y2.4751 Z-0.3212
N662 X-0.0435 Y2.4746 Z-0.3211
N663 X-0.0402 Y2.474 Z-0.321
N664 X-0.037 Y2.4732 Z-0.3209
N665 X-0.0337 Y2.4723 Z-0.3208
N666 X-0.0305 Y2.4712 Z-0.3207
N667 X-0.0274 Y2.47
N668 X-0.0243 Y2.4687
N669 X-0.0213 Y2.4672 Z-0.3206
N670 X-0.0183 Y2.4656
N671 X-0.0151 Y2.4637 Z-0.3209
N672 X-0.0119 Y2.4619 Z-0.3218
N673 X-0.0088 Y2.4601 Z-0.3232
N674 X-0.0061 Y2.4585 Z-0.3245
N675 X-0.0033 Y2.4569 Z-0.3253
N676 X-0.0004 Y2.4552 Z-0.3257
N677 X0.0881 Y2.4042 Z-0.331
N678 X0.204 Y2.3372 Z-0.3371
N679 X0.3069 Y2.2778 Z-0.3417
N680 X0.4229 Y2.2108 Z-0.3462
N681 X0.5642 Y2.1293 Z-0.3504
N682 X0.703 Y2.0491 Z-0.3532
N683 X0.8228 Y1.98 Z-0.3546
N684 X0.9426 Y1.9108 Z-0.3551
N685 X1.0655 Y1.8398 Z-0.3546
N686 X1.2252 Y1.7476 Z-0.3525
N687 X1.3515 Y1.6747 Z-0.3496
N688 X1.4697 Y1.6065 Z-0.346
N689 X1.6001 Y1.5312 Z-0.3409
N690 X1.7564 Y1.4409 Z-0.3333
N691 X1.8867 Y1.3657 Z-0.3257
N692 X2.0039 Y1.2981 Z-0.318
N693 X2.147 Y1.2154 Z-0.3073
N694 X2.2901 Y1.1328 Z-0.2951
N695 X2.4201 Y1.0578 Z-0.2829
N696 X2.563 Y0.9753 Z-0.2681
N697 X2.7058 Y0.8928 Z-0.2519
N698 X2.8355 Y0.818 Z-0.2359
N699 X2.978 Y0.7357 Z-0.2171
N700 X3.1204 Y0.6535 Z-0.1967
N701 X3.2367 Y0.5863 Z-0.179
N702 X3.3401 Y0.5266 Z-0.1624
N703 X3.4433 Y0.467 Z-0.1451
N704 X3.5465 Y0.4074 Z-0.127
N705 X3.6495 Y0.348 Z-0.1081
N706 X3.7524 Y0.2885 Z-0.0884
N707 X3.8553 Y0.2292 Z-0.0679
N708 X3.9708 Y0.1625 Z-0.044
N709 X4.1092 Y0.0826 Z-0.014
N710 X4.1382 Y0.0658 Z-0.0088
N711 X4.1673 Y0.049 Z-0.0049
N712 X4.1965 Y0.0322 Z-0.0021
N713 X4.2257 Y0.0153 Z-0.0005
N714 X4.2528 Y-0.0004 Z0
N715 X4.256 Y-0.0022 Z0.0003
N716 X4.2591 Y-0.004 Z0.0012
N717 X4.262 Y-0.0057 Z0.0025
N718 X4.2651 Y-0.0074 Z0.004
N719 X4.2683 Y-0.0093 Z0.0048
N720 X4.2716 Y-0.0112 Z0.0051
N721 X4.6258 Y-0.2157
N722 G3 X4.7282 Y-0.1882 I0.0375 J0.065
N723 G1 X4.7713 Y-0.1136
N724 G3 X4.7438 Y-0.0112 I-0.065 J0.0375
N725 G1 X4.7406 Y-0.0093 Z0.0048
N726 X4.7374 Y-0.0074 Z0.004
N727 X4.7343 Y-0.0057 Z0.0025
N728 X4.7314 Y-0.004 Z0.0012
N729 X4.7283 Y-0.0022 Z0.0003
N730 X4.7251 Y-0.0004 Z0
N731 X4.698 Y0.0153 Z-0.0005
N732 X4.6687 Y0.0322 Z-0.0021
N733 X4.6395 Y0.049 Z-0.0049
N734 X4.6104 Y0.0658 Z-0.0088
N735 X4.5815 Y0.0826 Z-0.014
N736 X4.4431 Y0.1625 Z-0.044
N737 X4.3275 Y0.2292 Z-0.0679
N738 X4.2247 Y0.2885 Z-0.0884
N739 X4.1218 Y0.348 Z-0.1081
N740 X4.0187 Y0.4074 Z-0.127
N741 X3.9156 Y0.467 Z-0.1451
N742 X3.8124 Y0.5266 Z-0.1624
N743 X3.709 Y0.5863 Z-0.179
N744 X3.5926 Y0.6535 Z-0.1967
N745 X3.4503 Y0.7357 Z-0.2171
N746 X3.3077 Y0.818 Z-0.2359
N747 X3.178 Y0.8928 Z-0.2519
N748 X3.0353 Y0.9753 Z-0.2681
N749 X2.8924 Y1.0578 Z-0.2829
N750 X2.7624 Y1.1328 Z-0.2951
N751 X2.6193 Y1.2154 Z-0.3073
N752 X2.4761 Y1.2981 Z-0.318
N753 X2.3459 Y1.3732 Z-0.3266
N754 X2.2026 Y1.456 Z-0.3348
N755 X2.0593 Y1.5387 Z-0.3415
N756 X1.9289 Y1.614 Z-0.3464
N757 X1.784 Y1.6977 Z-0.3507
N758 X1.6376 Y1.7822 Z-0.3535
N759 X1.5111 Y1.8552 Z-0.3548
N760 X1.3831 Y1.9291 Z-0.3551
N761 X1.23 Y2.0175 Z-0.354
N762 X1.0983 Y2.0936 Z-0.3518
N763 X0.9815 Y2.161 Z-0.3489
N764 X0.8662 Y2.2276 Z-0.3452
N765 X0.7385 Y2.3013 Z-0.34
N766 X0.5874 Y2.3885 Z-0.3325
N767 X0.4585 Y2.463 Z-0.3249
N768 X0.3426 Y2.5299 Z-0.3171
N769 X0.2268 Y2.5967 Z-0.3084
N770 X0.0981 Y2.6711 Z-0.2977
N771 X-0.0004 Y2.7279 Z-0.2887
N772 X-0.0031 Y2.7295 Z-0.2882
N773 X-0.0057 Y2.731 Z-0.2874
N774 X-0.0082 Y2.7324 Z-0.2862
N775 X-0.0113 Y2.7342 Z-0.2848
N776 X-0.0145 Y2.736 Z-0.284
N777 X-0.0177 Y2.7379 Z-0.2837
N778 X-0.1352 Y2.8057
N779 X-0.1381 Y2.8075
N780 X-0.1409 Y2.8094 Z-0.2836
N781 X-0.1436 Y2.8114 Z-0.2835
N782 X-0.1462 Y2.8135 Z-0.2834
N783 X-0.1488 Y2.8157 Z-0.2833
N784 X-0.1512 Y2.818 Z-0.2831
N785 X-0.1535 Y2.8204 Z-0.2829
N786 X-0.1557 Y2.823 Z-0.2826
N787 X-0.1578 Y2.8256 Z-0.2824
N788 X-0.1598 Y2.8283 Z-0.2821
N789 X-0.1616 Y2.8311 Z-0.2817
N790 X-0.1633 Y2.834 Z-0.2814
N791 X-0.1649 Y2.8369 Z-0.281
N792 X-0.1664 Y2.8399 Z-0.2806
N793 X-0.1677 Y2.843 Z-0.2801
N794 X-0.1689 Y2.8461 Z-0.2797
N795 X-0.17 Y2.8492 Z-0.2792
N796 X-0.1709 Y2.8524 Z-0.2787
N797 X-0.1716 Y2.8557 Z-0.2781
N798 X-0.1722 Y2.8589 Z-0.2776
N799 X-0.1727 Y2.8622 Z-0.277
N800 X-0.173 Y2.8655 Z-0.2764
N801 X-0.1731 Y2.8688 Z-0.2758
N802 X-0.1732 Y2.8721 Z-0.2751
N803 X-0.173 Y2.8754 Z-0.2745
N804 X-0.1727 Y2.8787 Z-0.2738
N805 X-0.1723 Y2.882 Z-0.2732
N806 X-0.1717 Y2.8852 Z-0.2725
N807 X-0.171 Y2.8884 Z-0.2718
N808 X-0.1701 Y2.8916 Z-0.2711
N809 X-0.1691 Y2.8947 Z-0.2704
N810 X-0.1679 Y2.8978 Z-0.2696
N811 X-0.1666 Y2.9008 Z-0.2689
N812 X-0.1651 Y2.9038 Z-0.2682
N813 X-0.1636 Y2.9067 Z-0.2675
N814 X-0.1187 Y2.9843 Z-0.2476
N815 X-0.117 Y2.9871 Z-0.2469
N816 X-0.1152 Y2.9899 Z-0.2462
N817 X-0.1132 Y2.9925 Z-0.2454
N818 X-0.1111 Y2.995 Z-0.2447
N819 X-0.1089 Y2.9975 Z-0.244
N820 X-0.1066 Y2.9998 Z-0.2433
N821 X-0.1042 Y3.0021 Z-0.2426
N822 X-0.1017 Y3.0042 Z-0.2419
N823 X-0.0991 Y3.0062 Z-0.2412
N824 X-0.0964 Y3.0081 Z-0.2406
N825 X-0.0936 Y3.0099 Z-0.2399
N826 X-0.0907 Y3.0115 Z-0.2393
N827 X-0.0878 Y3.0131 Z-0.2387
N828 X-0.0848 Y3.0144 Z-0.2381
N829 X-0.0817 Y3.0157 Z-0.2375
N830 X-0.0786 Y3.0168 Z-0.2369
N831 X-0.0754 Y3.0178 Z-0.2364
N832 X-0.0722 Y3.0186 Z-0.2359
N833 X-0.0689 Y3.0193 Z-0.2354
N834 X-0.0656 Y3.0198 Z-0.2349
N835 X-0.0623 Y3.0202 Z-0.2345
N836 X-0.059 Y3.0204 Z-0.2341
N837 X-0.0556 Y3.0205 Z-0.2337
N838 X-0.0523 Y3.0204 Z-0.2333
N839 X-0.049 Y3.0202 Z-0.233
N840 X-0.0456 Y3.0199 Z-0.2327
N841 X-0.0423 Y3.0194 Z-0.2324
N842 X-0.039 Y3.0187 Z-0.2322
N843 X-0.0357 Y3.0179 Z-0.232
N844 X-0.0325 Y3.017 Z-0.2318
N845 X-0.0293 Y3.0159 Z-0.2317
N846 X-0.0262 Y3.0147 Z-0.2316
N847 X-0.0231 Y3.0134 Z-0.2315
N848 X-0.0201 Y3.0119 Z-0.2314
N849 X-0.0171 Y3.0102
N850 X-0.0139 Y3.0084 Z-0.2317
N851 X-0.0107 Y3.0065 Z-0.2325
N852 X-0.0076 Y3.0047 Z-0.234
N853 X-0.0053 Y3.0034 Z-0.2351
N854 X-0.0029 Y3.002 Z-0.2359
N855 X-0.0004 Y3.0006 Z-0.2364
N856 X0.1147 Y2.9341 Z-0.2506
N857 X0.2548 Y2.8532 Z-0.2666
N858 X0.3834 Y2.779 Z-0.28
N859 X0.499 Y2.7122 Z-0.2912
N860 X0.6147 Y2.6454 Z-0.3015
N861 X0.7435 Y2.5711 Z-0.3118
N862 X0.8944 Y2.484 Z-0.3225
N863 X1.022 Y2.4103 Z-0.3304
N864 X1.1353 Y2.3449 Z-0.3364
N865 X1.2499 Y2.2787 Z-0.3417
N866 X1.3749 Y2.2065 Z-0.3465
N867 X1.5189 Y2.1234 Z-0.3507
N868 X1.6572 Y2.0435 Z-0.3534
N869 X1.7837 Y1.9706 Z-0.3548
N870 X1.9301 Y1.886 Z-0.3551
N871 X2.0765 Y1.8015 Z-0.354
N872 X2.2096 Y1.7246 Z-0.3517
N873 X2.3621 Y1.6366 Z-0.3478
N874 X2.5055 Y1.5538 Z-0.3426
N875 X2.6358 Y1.4785 Z-0.3367
N876 X2.7791 Y1.3958 Z-0.329
N877 X2.9224 Y1.3131 Z-0.3198
N878 X3.0526 Y1.238 Z-0.3103
N879 X3.1957 Y1.1553 Z-0.2986
N880 X3.3387 Y1.0728 Z-0.2854
N881 X3.4816 Y0.9903 Z-0.2709
N882 X3.6374 Y0.9003 Z-0.2534
N883 X3.78 Y0.818 Z-0.2359
N884 X3.9225 Y0.7357 Z-0.2171
N885 X4.0649 Y0.6535 Z-0.1967
N886 X4.1813 Y0.5863 Z-0.179
N887 X4.2846 Y0.5266 Z-0.1624
N888 X4.3879 Y0.467 Z-0.1451
N889 X4.491 Y0.4074 Z-0.127
N890 X4.5941 Y0.348 Z-0.1081
N891 X4.697 Y0.2885 Z-0.0884
N892 X4.7998 Y0.2292 Z-0.0679
N893 X4.9153 Y0.1625 Z-0.044
N894 X5.0538 Y0.0826 Z-0.014
N895 X5.0827 Y0.0658 Z-0.0088
N896 X5.1118 Y0.049 Z-0.0049
N897 X5.141 Y0.0322 Z-0.0021
N898 X5.1703 Y0.0153 Z-0.0005
N899 X5.1974 Y-0.0004 Z0
N900 X5.2005 Y-0.0022 Z0.0003
N901 X5.2036 Y-0.004 Z0.0012
N902 X5.2066 Y-0.0057 Z0.0025
N903 X5.2096 Y-0.0074 Z0.004
N904 X5.2128 Y-0.0093 Z0.0048
N905 X5.2161 Y-0.0112 Z0.0051
N906 X5.5703 Y-0.2157
N907 G3 X5.6728 Y-0.1882 I0.0375 J0.065
N908 G1 X5.7158 Y-0.1136
N909 G3 X5.6884 Y-0.0112 I-0.065 J0.0375
N910 G1 X5.6851 Y-0.0093 Z0.0048
N911 X5.6819 Y-0.0074 Z0.004
N912 X5.6789 Y-0.0057 Z0.0025
N913 X5.6759 Y-0.004 Z0.0012
N914 X5.6728 Y-0.0022 Z0.0003
N915 X5.6697 Y-0.0004 Z0
N916 X5.6425 Y0.0153 Z-0.0005
N917 X5.6133 Y0.0322 Z-0.0021
N918 X5.5841 Y0.049 Z-0.0049
N919 X5.555 Y0.0658 Z-0.0088
N920 X5.526 Y0.0826 Z-0.014
N921 X5.3876 Y0.1625 Z-0.044
N922 X5.2721 Y0.2292 Z-0.0679
N923 X5.1693 Y0.2885 Z-0.0884
N924 X5.0663 Y0.348 Z-0.1081
N925 X4.9633 Y0.4074 Z-0.127
N926 X4.8602 Y0.467 Z-0.1451
N927 X4.7569 Y0.5266 Z-0.1624
N928 X4.6536 Y0.5863 Z-0.179
N929 X4.5372 Y0.6535 Z-0.1967
N930 X4.3948 Y0.7357 Z-0.2171
N931 X4.2523 Y0.818 Z-0.236
N932 X4.1096 Y0.9003 Z-0.2534
N933 X3.9668 Y0.9828 Z-0.2695
N934 X3.8239 Y1.0653 Z-0.2842
N935 X3.6809 Y1.1478 Z-0.2974
N936 X3.5378 Y1.2304 Z-0.3093
N937 X3.3947 Y1.3131 Z-0.3198
N938 X3.2514 Y1.3958 Z-0.329
N939 X3.1081 Y1.4785 Z-0.3367
N940 X2.9648 Y1.5613 Z-0.3431
N941 X2.8082 Y1.6517 Z-0.3486
N942 X2.6687 Y1.7322 Z-0.352
N943 X2.529 Y1.8129 Z-0.3542
N944 X2.3693 Y1.9051 Z-0.3551
N945 X2.2375 Y1.9812 Z-0.3546
N946 X2.0977 Y2.0619 Z-0.3529
N947 X1.9444 Y2.1504 Z-0.3494
N948 X1.8186 Y2.2231 Z-0.3454
N949 X1.6922 Y2.296 Z-0.3404
N950 X1.5425 Y2.3825 Z-0.3331
N951 X1.4058 Y2.4614 Z-0.325
N952 X1.2913 Y2.5275 Z-0.3174
N953 X1.1768 Y2.5936 Z-0.3088
N954 X1.0507 Y2.6664 Z-0.2984
N955 X0.9 Y2.7534 Z-0.2845
N956 X0.7844 Y2.8201 Z-0.2727
N957 X0.6688 Y2.8869 Z-0.2601
N958 X0.5534 Y2.9535 Z-0.2465
N959 X0.438 Y3.0201 Z-0.232
N960 X0.3098 Y3.0942 Z-0.2148
N961 X0.1701 Y3.1748 Z-0.1947
N962 X0.055 Y3.2413 Z-0.1771
N963 X-0.0004 Y3.2732 Z-0.1683
N964 X-0.0051 Y3.2759 Z-0.1673
N965 X-0.0096 Y3.2786 Z-0.1656
N966 X-0.014 Y3.2811 Z-0.1634
N967 X-0.0182 Y3.2835 Z-0.1607
N968 X-0.022 Y3.2857 Z-0.1574
N969 X-0.0255 Y3.2878 Z-0.1537
N970 X-0.0287 Y3.2896 Z-0.1495
N971 X-0.0314 Y3.2911 Z-0.145
N972 X-0.0337 Y3.2924 Z-0.1402
N973 X-0.0355 Y3.2935 Z-0.135
N974 X-0.0368 Y3.2942 Z-0.1297
N975 X-0.0376 Y3.2947 Z-0.1243
N976 X-0.0378 Y3.2948 Z-0.1188
N977 G0 Z0.1969
N978 X0.3019 Y3.3714
N979 Z-0.0797
N980 G1 Z-0.1075 F24
N981 X0.3021 Y3.3712 Z-0.113
N982 X0.3029 Y3.3708 Z-0.1185
N983 X0.3042 Y3.37 Z-0.1238
N984 X0.3061 Y3.369 Z-0.129
N985 X0.3084 Y3.3677 Z-0.1338
N986 X0.3111 Y3.3661 Z-0.1384
N987 X0.3143 Y3.3642 Z-0.1425
N988 X0.3178 Y3.3622 Z-0.1463
N989 X0.3217 Y3.3599 Z-0.1495
N990 X0.3259 Y3.3575 Z-0.1523
N991 X0.3303 Y3.355 Z-0.1545
N992 X0.3349 Y3.3523 Z-0.1561
N993 X0.3396 Y3.3496 Z-0.1571
N994 X0.3444 Y3.3468 Z-0.1575
N995 X0.3748 Y3.3293 Z-0.1581
N996 X0.4008 Y3.3143 Z-0.1596
N997 X0.4268 Y3.2993 Z-0.162
N998 X0.4527 Y3.2843 Z-0.1653
N999 X0.5173 Y3.247 Z-0.1755
N1000 X0.6323 Y3.1806 Z-0.1932
N1001 X0.7345 Y3.1216 Z-0.2081
N1002 X0.8368 Y3.0625 Z-0.2223
N1003 X0.9521 Y2.996 Z-0.2374
N1004 X1.0792 Y2.9226 Z-0.253
N1005 X1.2207 Y2.8409 Z-0.2689
N1006 X1.3362 Y2.7742 Z-0.2809
N1007 X1.4506 Y2.7082 Z-0.2919
N1008 X1.5636 Y2.6429 Z-0.3019
N1009 X1.7001 Y2.5641 Z-0.3128
N1010 X1.8497 Y2.4777 Z-0.3232
N1011 X1.976 Y2.4049 Z-0.3309
N1012 X2.1113 Y2.3267 Z-0.338
N1013 X2.2597 Y2.241 Z-0.3443
N1014 X2.3984 Y2.161 Z-0.3489
N1015 X2.5321 Y2.0838 Z-0.3522
N1016 X2.6913 Y1.9919 Z-0.3545
N1017 X2.8311 Y1.9112 Z-0.3551
N1018 X2.9813 Y1.8244 Z-0.3544
N1019 X3.1277 Y1.7399 Z-0.3523
N1020 X3.2673 Y1.6593 Z-0.3489
N1021 X3.411 Y1.5764 Z-0.3441
N1022 X3.5543 Y1.4936 Z-0.338
N1023 X3.6976 Y1.4108 Z-0.3305
N1024 X3.8539 Y1.3206 Z-0.3207
N1025 X3.9971 Y1.238 Z-0.3103
N1026 X4.1402 Y1.1553 Z-0.2986
N1027 X4.2832 Y1.0728 Z-0.2854
N1028 X4.4261 Y0.9903 Z-0.2709
N1029 X4.5689 Y0.9078 Z-0.255
N1030 X4.7116 Y0.8254 Z-0.2376
N1031 X4.8541 Y0.7431 Z-0.2189
N1032 X4.9965 Y0.6609 Z-0.1987
N1033 X5.1258 Y0.5863 Z-0.179
N1034 X5.2292 Y0.5266 Z-0.1624
N1035 X5.3324 Y0.467 Z-0.1451
N1036 X5.4356 Y0.4074 Z-0.127
N1037 X5.5386 Y0.348 Z-0.1081
N1038 X5.6416 Y0.2885 Z-0.0884
N1039 X5.7444 Y0.2292 Z-0.0679
N1040 X5.8599 Y0.1625 Z-0.044
N1041 X5.9983 Y0.0826 Z-0.014
N1042 X6.0273 Y0.0658 Z-0.0088
N1043 X6.0564 Y0.049 Z-0.0049
N1044 X6.0856 Y0.0322 Z-0.0021
N1045 X6.1148 Y0.0153 Z-0.0005
N1046 X6.1419 Y-0.0004 Z0
N1047 X6.1451 Y-0.0022 Z0.0003
N1048 X6.1482 Y-0.004 Z0.0012
N1049 X6.1511 Y-0.0057 Z0.0025
N1050 X6.1542 Y-0.0074 Z0.004
N1051 X6.1574 Y-0.0093 Z0.0048
N1052 X6.1607 Y-0.0112 Z0.0051
N1053 X6.5149 Y-0.2157
N1054 G3 X6.6173 Y-0.1882 I0.0375 J0.065
N1055 G1 X6.6604 Y-0.1136
N1056 G3 X6.6329 Y-0.0112 I-0.065 J0.0375
N1057 G1 X6.6297 Y-0.0093 Z0.0048
N1058 X6.6265 Y-0.0074 Z0.004
N1059 X6.6234 Y-0.0057 Z0.0025
N1060 X6.6205 Y-0.004 Z0.0012
N1061 X6.6174 Y-0.0022 Z0.0003
N1062 X6.6142 Y-0.0004 Z0
N1063 X6.5871 Y0.0153 Z-0.0005
N1064 X6.5578 Y0.0322 Z-0.0021
N1065 X6.5286 Y0.049 Z-0.0049
N1066 X6.4996 Y0.0658 Z-0.0088
N1067 X6.4706 Y0.0826 Z-0.014
N1068 X6.3322 Y0.1625 Z-0.044
N1069 X6.2166 Y0.2292 Z-0.0679
N1070 X6.1138 Y0.2885 Z-0.0884
N1071 X6.0109 Y0.348 Z-0.1081
N1072 X5.9079 Y0.4074 Z-0.127
N1073 X5.8047 Y0.467 Z-0.1451
N1074 X5.7015 Y0.5266 Z-0.1624
N1075 X5.5981 Y0.5863 Z-0.179
N1076 X5.4688 Y0.6609 Z-0.1987
N1077 X5.3264 Y0.7431 Z-0.2189
N1078 X5.1839 Y0.8254 Z-0.2376
N1079 X5.0412 Y0.9078 Z-0.255
N1080 X4.8984 Y0.9903 Z-0.2709
N1081 X4.7555 Y1.0728 Z-0.2854
N1082 X4.6125 Y1.1553 Z-0.2986
N1083 X4.4694 Y1.238 Z-0.3103
N1084 X4.3262 Y1.3206 Z-0.3207
N1085 X4.1699 Y1.4108 Z-0.3305
N1086 X4.0266 Y1.4936 Z-0.338
N1087 X3.8832 Y1.5764 Z-0.3441
N1088 X3.7396 Y1.6593 Z-0.3489
N1089 X3.5933 Y1.7438 Z-0.3524
N1090 X3.4402 Y1.8321 Z-0.3546
N1091 X3.2915 Y1.918 Z-0.3551
N1092 X3.1451 Y2.0025 Z-0.3543
N1093 X2.9934 Y2.0901 Z-0.352
N1094 X2.8655 Y2.164 Z-0.3488
N1095 X2.7269 Y2.244 Z-0.3442
N1096 X2.5785 Y2.3297 Z-0.3378
N1097 X2.4432 Y2.4078 Z-0.3306
N1098 X2.3052 Y2.4874 Z-0.3222
N1099 X2.1596 Y2.5715 Z-0.3118
N1100 X2.0348 Y2.6436 Z-0.3018
N1101 X1.9101 Y2.7156 Z-0.2907
N1102 X1.7698 Y2.7966 Z-0.277
N1103 X1.6296 Y2.8775 Z-0.2619
N1104 X1.5141 Y2.9442 Z-0.2484
N1105 X1.4117 Y3.0033 Z-0.2358
N1106 X1.3093 Y3.0624 Z-0.2223
N1107 X1.207 Y3.1215 Z-0.2082
N1108 X1.1048 Y3.1805 Z-0.1932
N1109 X0.9898 Y3.2469 Z-0.1755
N1110 X0.9252 Y3.2842 Z-0.1654
N1111 X0.8993 Y3.2992 Z-0.162
N1112 X0.8733 Y3.3142 Z-0.1596
N1113 X0.8473 Y3.3292 Z-0.1581
N1114 X0.8167 Y3.3468 Z-0.1575
N1115 X0.8136 Y3.3486 Z-0.1572
N1116 X0.8105 Y3.3504 Z-0.1563
N1117 X0.8076 Y3.3521 Z-0.1549
N1118 X0.8045 Y3.3539 Z-0.1535
N1119 X0.8013 Y3.3557 Z-0.1527
N1120 X0.798 Y3.3576 Z-0.1524
N1121 G2 X0.7706 Y3.4601 I0.0375 J0.065
N1122 G1 X0.8136 Y3.5347
N1123 G2 X0.9161 Y3.5621 I0.065 J-0.0375
N1124 G1 X1.2703 Y3.3576
N1125 X1.2736 Y3.3557 Z-0.1527
N1126 X1.2768 Y3.3539 Z-0.1535
N1127 X1.2798 Y3.3521 Z-0.1549
N1128 X1.2828 Y3.3504 Z-0.1563
N1129 X1.2858 Y3.3486 Z-0.1572
N1130 X1.289 Y3.3468 Z-0.1575
N1131 X1.3185 Y3.3298 Z-0.158
N1132 X1.3445 Y3.3148 Z-0.1595
N1133 X1.3705 Y3.2998 Z-0.1619
N1134 X1.3964 Y3.2848 Z-0.1652
N1135 X1.474 Y3.24 Z-0.1774
N1136 X1.5761 Y3.1811 Z-0.1931
N1137 X1.6783 Y3.1221 Z-0.208
N1138 X1.7806 Y3.063 Z-0.2222
N1139 X1.8829 Y3.0039 Z-0.2356
N1140 X1.9853 Y2.9448 Z-0.2483
N1141 X2.0878 Y2.8856 Z-0.2603
N1142 X2.2034 Y2.8189 Z-0.2729
N1143 X2.354 Y2.7319 Z-0.2881
N1144 X2.4904 Y2.6532 Z-0.3004
N1145 X2.6152 Y2.5811 Z-0.3105
N1146 X2.7491 Y2.5038 Z-0.3203
N1147 X2.8974 Y2.4182 Z-0.3296
N1148 X3.0341 Y2.3393 Z-0.3369
N1149 X3.1825 Y2.2536 Z-0.3435
N1150 X3.3327 Y2.1669 Z-0.3486
N1151 X3.473 Y2.0859 Z-0.3521
N1152 X3.6322 Y1.994 Z-0.3545
N1153 X3.7786 Y1.9095 Z-0.3552
N1154 X3.9258 Y1.8245 Z-0.3544
N1155 X4.0789 Y1.7361 Z-0.3522
N1156 X4.225 Y1.6517 Z-0.3486
N1157 X4.3686 Y1.5688 Z-0.3436
N1158 X4.5119 Y1.4861 Z-0.3374
N1159 X4.6552 Y1.4033 Z-0.3297
N1160 X4.7985 Y1.3206 Z-0.3207
N1161 X4.9417 Y1.238 Z-0.3103
N1162 X5.0848 Y1.1553 Z-0.2986
N1163 X5.2278 Y1.0728 Z-0.2854
N1164 X5.3707 Y0.9903 Z-0.2709
N1165 X5.5135 Y0.9078 Z-0.255
N1166 X5.6562 Y0.8254 Z-0.2376
N1167 X5.7987 Y0.7431 Z-0.2189
N1168 X5.9411 Y0.6609 Z-0.1987
N1169 X6.0704 Y0.5863 Z-0.179
N1170 X6.1737 Y0.5266 Z-0.1624
N1171 X6.277 Y0.467 Z-0.1451
N1172 X6.3801 Y0.4074 Z-0.127
N1173 X6.4832 Y0.348 Z-0.1081
N1174 X6.5861 Y0.2885 Z-0.0884
N1175 X6.6889 Y0.2292 Z-0.0679
N1176 X6.8044 Y0.1625 Z-0.044
N1177 X6.9429 Y0.0826 Z-0.014
N1178 X6.9718 Y0.0658 Z-0.0088
N1179 X7.0009 Y0.049 Z-0.0049
N1180 X7.0301 Y0.0322 Z-0.0021
N1181 X7.0594 Y0.0153 Z-0.0005
N1182 X7.0865 Y-0.0004 Z0
N1183 X7.0897 Y-0.0022 Z0.0003
N1184 X7.0927 Y-0.004 Z0.0012
N1185 X7.0957 Y-0.0057 Z0.0025
N1186 X7.0987 Y-0.0074 Z0.004
N1187 X7.1019 Y-0.0093 Z0.0048
N1188 X7.1052 Y-0.0112 Z0.0051
N1189 X7.4594 Y-0.2157
N1190 G3 X7.5619 Y-0.1882 I0.0375 J0.065
N1191 G1 X7.605 Y-0.1136
N1192 G3 X7.5775 Y-0.0112 I-0.065 J0.0375
N1193 G1 X7.5742 Y-0.0093 Z0.0048
N1194 X7.571 Y-0.0074 Z0.004
N1195 X7.568 Y-0.0057 Z0.0025
N1196 X7.565 Y-0.004 Z0.0012
N1197 X7.5619 Y-0.0022 Z0.0003
N1198 X7.5588 Y-0.0004 Z0
N1199 X7.5317 Y0.0153 Z-0.0005
N1200 X7.5024 Y0.0322 Z-0.0021
N1201 X7.4732 Y0.049 Z-0.0049
N1202 X7.4441 Y0.0658 Z-0.0088
N1203 X7.4151 Y0.0826 Z-0.014
N1204 X7.2767 Y0.1625 Z-0.044
N1205 X7.1612 Y0.2292 Z-0.0679
N1206 X7.0584 Y0.2885 Z-0.0884
N1207 X6.9555 Y0.348 Z-0.1081
N1208 X6.8524 Y0.4074 Z-0.127
N1209 X6.7493 Y0.467 Z-0.1451
N1210 X6.646 Y0.5266 Z-0.1624
N1211 X6.5427 Y0.5863 Z-0.179
N1212 X6.484 Y0.6201 Z-0.1881
N1213 X6.4678 Y0.6295 Z-0.1758
N1214 X6.4511 Y0.6391 Z-0.1643
N1215 X6.4323 Y0.65 Z-0.1527
N1216 X6.4078 Y0.6642 Z-0.1391
N1217 X6.3747 Y0.6833 Z-0.1235
N1218 X6.3473 Y0.6991 Z-0.1126
N1219 X6.3191 Y0.7154 Z-0.1028
N1220 X6.2938 Y0.7299 Z-0.0954
N1221 X6.2652 Y0.7465 Z-0.0879
N1222 X6.2428 Y0.7594 Z-0.083
N1223 X6.2171 Y0.7742 Z-0.0782
N1224 X6.1894 Y0.7903 Z-0.0737
N1225 X6.1602 Y0.8071 Z-0.07
N1226 X6.1245 Y0.8277 Z-0.0666
N1227 X6.1017 Y0.8409 Z-0.0651
N1228 X6.0724 Y0.8578 Z-0.0638
N1229 X6.036 Y0.8788 Z-0.0633
N1230 X6.0227 Y0.8865 Z-0.0634
N1231 X5.9964 Y0.9017 Z-0.064
N1232 X5.9717 Y0.916 Z-0.0652
N1233 X5.9424 Y0.9328 Z-0.0672
N1234 X5.9052 Y0.9543 Z-0.071
N1235 X5.8783 Y0.9698 Z-0.0747
N1236 X5.8538 Y0.984 Z-0.0787
N1237 X5.8249 Y1.0007 Z-0.0843
N1238 X5.799 Y1.0156 Z-0.0904
N1239 X5.7752 Y1.0294 Z-0.0968
N1240 X5.7522 Y1.0427 Z-0.1037
N1241 X5.7213 Y1.0605 Z-0.1147
N1242 X5.6985 Y1.0737 Z-0.1239
N1243 X5.6692 Y1.0906 Z-0.1377
N1244 X5.6505 Y1.1014 Z-0.1477
N1245 X5.6348 Y1.1105 Z-0.1569
N1246 X5.6167 Y1.1209 Z-0.1685
N1247 X5.5943 Y1.1338 Z-0.1847
N1248 X5.5797 Y1.1422 Z-0.1966
N1249 X5.5657 Y1.1503 Z-0.2091
N1250 X5.5478 Y1.1607 Z-0.227
N1251 X5.5371 Y1.1668 Z-0.2391
N1252 X5.5217 Y1.1758 Z-0.2582
N1253 X5.508 Y1.1837 Z-0.2783
N1254 X5.501 Y1.1877 Z-0.2898
N1255 X5.4931 Y1.1922 Z-0.304
N1256 X5.3431 Y1.2788 Z-0.3156
N1257 X5.1999 Y1.3615 Z-0.3253
N1258 X5.0566 Y1.4442 Z-0.3337
N1259 X4.9133 Y1.527 Z-0.3406
N1260 X4.7699 Y1.6098 Z-0.3462
N1261 X4.6185 Y1.6972 Z-0.3507
N1262 X4.4654 Y1.7856 Z-0.3536
N1263 X4.3124 Y1.8739 Z-0.355
N1264 X4.1592 Y1.9624 Z-0.3549
N1265 X4.0062 Y2.0507 Z-0.3532
N1266 X3.85 Y2.1409 Z-0.3499
N1267 X3.7122 Y2.2205 Z-0.3456
N1268 X3.5754 Y2.2994 Z-0.3402
N1269 X3.427 Y2.3851 Z-0.3329
N1270 X3.2917 Y2.4632 Z-0.3249
N1271 X3.1552 Y2.5421 Z-0.3156
N1272 X2.9979 Y2.6328 Z-0.3034
N1273 X2.8628 Y2.7108 Z-0.2915
N1274 X2.7368 Y2.7836 Z-0.2793
N1275 X2.5953 Y2.8653 Z-0.2643
N1276 X2.4682 Y2.9387 Z-0.2496
N1277 X2.3528 Y3.0053 Z-0.2353
N1278 X2.2504 Y3.0644 Z-0.2219
N1279 X2.1481 Y3.1235 Z-0.2077
N1280 X2.046 Y3.1825 Z-0.1927
N1281 X1.9438 Y3.2414 Z-0.1771
N1282 X1.8663 Y3.2862 Z-0.1649
N1283 X1.8404 Y3.3011 Z-0.1616
N1284 X1.8144 Y3.3162 Z-0.1593
N1285 X1.7883 Y3.3312 Z-0.1579
N1286 X1.7613 Y3.3468 Z-0.1575
N1287 X1.7581 Y3.3487 Z-0.1572
N1288 X1.755 Y3.3504 Z-0.1563
N1289 X1.7521 Y3.3521 Z-0.1549
N1290 X1.749 Y3.3539 Z-0.1535
N1291 X1.7458 Y3.3557 Z-0.1527
N1292 X1.7425 Y3.3576 Z-0.1524
N1293 G2 X1.7151 Y3.4601 I0.0375 J0.065
N1294 G1 X1.7582 Y3.5347
N1295 G2 X1.8606 Y3.5621 I0.065 J-0.0375
N1296 G1 X2.2148 Y3.3576
N1297 X2.2181 Y3.3557 Z-0.1527
N1298 X2.2213 Y3.3539 Z-0.1535
N1299 X2.2244 Y3.3521 Z-0.1549
N1300 X2.2273 Y3.3504 Z-0.1563
N1301 X2.2304 Y3.3486 Z-0.1572
N1302 X2.2335 Y3.3468 Z-0.1575
N1303 X2.2634 Y3.3296 Z-0.158
N1304 X2.2894 Y3.3146 Z-0.1595
N1305 X2.3154 Y3.2996 Z-0.1619
N1306 X2.3413 Y3.2846 Z-0.1653
N1307 X2.4498 Y3.222 Z-0.1824
N1308 X2.5908 Y3.1406 Z-0.2034
N1309 X2.706 Y3.0741 Z-0.2196
N1310 X2.8213 Y3.0075 Z-0.2348
N1311 X2.9367 Y2.9409 Z-0.2491
N1312 X3.0522 Y2.8742 Z-0.2626
N1313 X3.1924 Y2.7932 Z-0.2776
N1314 X3.3314 Y2.713 Z-0.2911
N1315 X3.4651 Y2.6358 Z-0.3029
N1316 X3.6107 Y2.5517 Z-0.3144
N1317 X3.7589 Y2.4661 Z-0.3246
N1318 X3.9059 Y2.3813 Z-0.3332
N1319 X4.0557 Y2.2948 Z-0.3405
N1320 X4.1924 Y2.2159 Z-0.3459
N1321 X4.3304 Y2.1362 Z-0.3501
N1322 X4.4799 Y2.0499 Z-0.3532
N1323 X4.633 Y1.9615 Z-0.3549
N1324 X4.7878 Y1.8721 Z-0.355
N1325 X4.9408 Y1.7838 Z-0.3536
N1326 X5.0872 Y1.6993 Z-0.3508
N1327 X5.2387 Y1.6118 Z-0.3464
N1328 X5.3824 Y1.5288 Z-0.3408
N1329 X5.384 Y1.5279 Z-0.3349
N1330 X5.3924 Y1.523 Z-0.3084
N1331 X5.4025 Y1.5172 Z-0.2828
N1332 X5.4141 Y1.5105 Z-0.2585
N1333 X5.4271 Y1.503 Z-0.2352
N1334 X5.4395 Y1.4959 Z-0.2159
N1335 X5.449 Y1.4904 Z-0.2023
N1336 X5.465 Y1.4811 Z-0.182
N1337 X5.482 Y1.4713 Z-0.1629
N1338 X5.4954 Y1.4636 Z-0.1495
N1339 X5.5093 Y1.4556 Z-0.1367
N1340 X5.5284 Y1.4445 Z-0.1206
N1341 X5.5533 Y1.4301 Z-0.1024
N1342 X5.5688 Y1.4212 Z-0.0924
N1343 X5.5871 Y1.4106 Z-0.0815
N1344 X5.6112 Y1.3967 Z-0.0688
N1345 X5.6385 Y1.381 Z-0.0563
N1346 X5.6628 Y1.3669 Z-0.0467
N1347 X5.686 Y1.3535 Z-0.0388
N1348 X5.7159 Y1.3363 Z-0.03
N1349 X5.7518 Y1.3156 Z-0.0215
N1350 X5.7778 Y1.3005 Z-0.0166
N1351 X5.804 Y1.2854 Z-0.0124
N1352 X5.8396 Y1.2648 Z-0.008
N1353 X5.874 Y1.245 Z-0.005
N1354 X5.9076 Y1.2256 Z-0.0029
N1355 X5.9576 Y1.1967 Z-0.001
N1356 X6.0236 Y1.1586 Z-0.0002
N1357 X6.2541 Y1.0256 Z0
N1358 X6.3473 Y0.9718 Z-0.0009
N1359 X6.3864 Y0.9492 Z-0.0022
N1360 X6.419 Y0.9303 Z-0.0038
N1361 X6.4515 Y0.9116 Z-0.0062
N1362 X6.471 Y0.9003 Z-0.008
N1363 X6.5034 Y0.8816 Z-0.012
N1364 X6.5293 Y0.8667 Z-0.016
N1365 X6.5614 Y0.8481 Z-0.0221
N1366 X6.5869 Y0.8334 Z-0.0281
N1367 X6.6059 Y0.8224 Z-0.0332
N1368 X6.6373 Y0.8043 Z-0.0431
N1369 X6.662 Y0.79 Z-0.0523
N1370 X6.6833 Y0.7777 Z-0.0614
N1371 X6.7043 Y0.7656 Z-0.0714
N1372 X6.7278 Y0.752 Z-0.0841
N1373 X6.7549 Y0.7364 Z-0.101
N1374 X6.7782 Y0.723 Z-0.1178
N1375 X6.7914 Y0.7153 Z-0.1285
N1376 X6.8093 Y0.705 Z-0.1442
N1377 X6.8288 Y0.6937 Z-0.1635
N1378 X6.8471 Y0.6832 Z-0.1842
N1379 X6.8612 Y0.6751 Z-0.2022
N1380 X6.8842 Y0.6618 Z-0.1989
N1381 X7.0135 Y0.5871 Z-0.1792
N1382 X7.1168 Y0.5275 Z-0.1626
N1383 X7.2201 Y0.4679 Z-0.1453
N1384 X7.3232 Y0.4083 Z-0.1272
N1385 X7.4263 Y0.3488 Z-0.1084
N1386 X7.5292 Y0.2894 Z-0.0887
N1387 X7.632 Y0.23 Z-0.0682
N1388 X7.7475 Y0.1633 Z-0.0443
N1389 X7.8744 Y0.0901 Z-0.0168
N1390 X7.8772 Y0.0884 Z-0.0159
N1391 X7.8799 Y0.0869 Z-0.0147
N1392 X7.883 Y0.0851 Z-0.0133
N1393 X7.8862 Y0.0833 Z-0.0124
N1394 X7.8895 Y0.0814 Z-0.0121
N1395 X7.8924 Y0.0797
N1396 X7.8954 Y0.0783 Z-0.0122
N1397 X7.8985 Y0.0769 Z-0.0124
N1398 X7.9016 Y0.0756 Z-0.0126
N1399 X7.9048 Y0.0745 Z-0.0128
N1400 X7.908 Y0.0736 Z-0.0131
N1401 X7.9112 Y0.0727 Z-0.0135
N1402 X7.9145 Y0.072 Z-0.0139
N1403 X7.9178 Y0.0715 Z-0.0144
N1404 X7.9211 Y0.0711 Z-0.0149
N1405 X7.9244 Y0.0708 Z-0.0155
N1406 X7.9277 Y0.0707 Z-0.0161
N1407 X7.931 Z-0.0168
N1408 X7.9343 Y0.0708 Z-0.0175
N1409 X7.9375 Y0.0711 Z-0.0183
N1410 X7.9408 Y0.0716 Z-0.0191
N1411 X7.944 Y0.0721 Z-0.0199
N1412 X7.9472 Y0.0729 Z-0.0208
N1413 X7.9503 Y0.0737 Z-0.0218
N1414 X7.9533 Y0.0747 Z-0.0227
N1415 X7.9563 Y0.0758 Z-0.0237
N1416 X7.9593 Y0.0771 Z-0.0248
N1417 X7.9622 Y0.0785 Z-0.0259
N1418 X7.9649 Y0.08 Z-0.027
N1419 X7.9677 Y0.0817 Z-0.0281
N1420 X7.9703 Y0.0834 Z-0.0292
N1421 X7.9728 Y0.0853 Z-0.0304
N1422 X7.9753 Y0.0873 Z-0.0316
N1423 X7.9776 Y0.0894 Z-0.0328
N1424 X7.9798 Y0.0916 Z-0.0341
N1425 X7.9819 Y0.0939 Z-0.0353
N1426 X7.9839 Y0.0963 Z-0.0366
N1427 X7.9858 Y0.0988 Z-0.0378
N1428 X7.9875 Y0.1014 Z-0.0391
N1429 X7.9892 Y0.104 Z-0.0403
N1430 X8.0378 Y0.1882 Z-0.0798
N1431 X8.0392 Y0.1909 Z-0.0811
N1432 X8.0406 Y0.1937 Z-0.0824
N1433 X8.0418 Y0.1966 Z-0.0836
N1434 X8.0429 Y0.1995 Z-0.0849
N1435 X8.0439 Y0.2025 Z-0.0861
N1436 X8.0447 Y0.2056 Z-0.0873
N1437 X8.0453 Y0.2086 Z-0.0886
N1438 X8.0458 Y0.2117 Z-0.0898
N1439 X8.0462 Y0.2149 Z-0.0909
N1440 X8.0464 Y0.218 Z-0.0921
N1441 X8.0465 Y0.2212 Z-0.0932
N1442 X8.0464 Y0.2244 Z-0.0943
N1443 X8.0461 Y0.2276 Z-0.0954
N1444 X8.0458 Y0.2307 Z-0.0964
N1445 X8.0452 Y0.2339 Z-0.0974
N1446 X8.0446 Y0.2371 Z-0.0984
N1447 X8.0438 Y0.2402 Z-0.0993
N1448 X8.0428 Y0.2433 Z-0.1002
N1449 X8.0417 Y0.2463 Z-0.1011
N1450 X8.0405 Y0.2494 Z-0.1019
N1451 X8.0391 Y0.2523 Z-0.1027
N1452 X8.0376 Y0.2553 Z-0.1034
N1453 X8.0359 Y0.2581 Z-0.1041
N1454 X8.0342 Y0.2609 Z-0.1047
N1455 X8.0323 Y0.2636 Z-0.1053
N1456 X8.0303 Y0.2663 Z-0.1058
N1457 X8.0281 Y0.2689 Z-0.1063
N1458 X8.0259 Y0.2713 Z-0.1067
N1459 X8.0236 Y0.2737 Z-0.1071
N1460 X8.0211 Y0.276 Z-0.1074
N1461 X8.0186 Y0.2782 Z-0.1076
N1462 X8.0159 Y0.2803 Z-0.1078
N1463 X8.0132 Y0.2823 Z-0.108
N1464 X8.0104 Y0.2841
N1465 X8.0075 Y0.2859 Z-0.1081
N1466 X7.8901 Y0.3537
N1467 X7.8869 Y0.3556 Z-0.1084
N1468 X7.8836 Y0.3574 Z-0.1092
N1469 X7.8806 Y0.3592 Z-0.1106
N1470 X7.8776 Y0.3609 Z-0.112
N1471 X7.8744 Y0.3627 Z-0.1129
N1472 X7.734 Y0.4438 Z-0.1382
N1473 X7.6179 Y0.5109 Z-0.1579
N1474 X7.5016 Y0.578 Z-0.1767
N1475 X7.3853 Y0.6451 Z-0.1945
N1476 X7.2559 Y0.7199 Z-0.2133
N1477 X7.1252 Y0.7953 Z-0.2308
N1478 X7.1134 Y0.8021 Z-0.2097
N1479 X7.1011 Y0.8092 Z-0.1904
N1480 X7.0911 Y0.815 Z-0.1762
N1481 X7.0806 Y0.8211 Z-0.1622
N1482 X7.0627 Y0.8314 Z-0.141
N1483 X7.0435 Y0.8425 Z-0.1213
N1484 X7.0233 Y0.8541 Z-0.1029
N1485 X7.0021 Y0.8664 Z-0.086
N1486 X6.98 Y0.8791 Z-0.0706
N1487 X6.9571 Y0.8923 Z-0.0567
N1488 X6.9335 Y0.906 Z-0.0445
N1489 X6.9112 Y0.9188 Z-0.0345
N1490 X6.8939 Y0.9288 Z-0.0279
N1491 X6.8721 Y0.9414 Z-0.0205
N1492 X6.8468 Y0.9561 Z-0.0136
N1493 X6.8212 Y0.9708 Z-0.0082
N1494 X6.7889 Y0.9895 Z-0.0034
N1495 X6.7629 Y1.0045 Z-0.0011
N1496 X6.7367 Y1.0196 Z-0.0001
N1497 X6.7191 Y1.0298
N1498 X6.7031 Y1.039 Z-0.0009
N1499 X6.6797 Y1.0525 Z-0.0035
N1500 X6.6565 Y1.0659 Z-0.0075
N1501 X6.6335 Y1.0792 Z-0.0129
N1502 X6.6108 Y1.0923 Z-0.0195
N1503 X6.5882 Y1.1053 Z-0.0273
N1504 X6.566 Y1.1181 Z-0.0361
N1505 X6.5387 Y1.1339 Z-0.0484
N1506 X6.5136 Y1.1484 Z-0.0612
N1507 X6.4882 Y1.1631 Z-0.0751
N1508 X6.4597 Y1.1795 Z-0.0921
N1509 X6.4266 Y1.1987 Z-0.1132
N1510 X6.4086 Y1.209 Z-0.125
N1511 X6.1378 Y1.3654
N1512 X6.0946 Y1.3903 Z-0.097
N1513 X6.0623 Y1.409 Z-0.0775
N1514 X6.0348 Y1.4248 Z-0.0622
N1515 X6.0129 Y1.4375 Z-0.051
N1516 X5.9887 Y1.4514 Z-0.0397
N1517 X5.9643 Y1.4656 Z-0.0296
N1518 X5.9394 Y1.4799 Z-0.0207
N1519 X5.9206 Y1.4908 Z-0.015
N1520 X5.9015 Y1.5018 Z-0.01
N1521 X5.8799 Y1.5142 Z-0.0056
N1522 X5.863 Y1.524 Z-0.003
N1523 X5.8436 Y1.5353 Z-0.001
N1524 X5.8228 Y1.5472 Z0
N1525 X5.7946 Y1.5635 Z-0.0005
N1526 X5.7755 Y1.5745 Z-0.0017
N1527 X5.7504 Y1.5891 Z-0.0043
N1528 X5.7231 Y1.6048 Z-0.0086
N1529 X5.7001 Y1.6181 Z-0.0135
N1530 X5.6715 Y1.6346 Z-0.0214
N1531 X5.6434 Y1.6508 Z-0.0312
N1532 X5.6213 Y1.6636 Z-0.0405
N1533 X5.5983 Y1.6769 Z-0.0518
N1534 X5.5837 Y1.6853 Z-0.06
N1535 X5.568 Y1.6943 Z-0.0695
N1536 X5.5452 Y1.7075 Z-0.0852
N1537 X5.5234 Y1.7201 Z-0.1026
N1538 X5.5047 Y1.7309 Z-0.1195
N1539 X5.4869 Y1.7412 Z-0.1376
N1540 X5.4721 Y1.7497 Z-0.1546
N1541 X5.461 Y1.7561 Z-0.1685
N1542 X5.4504 Y1.7622 Z-0.1829
N1543 X5.436 Y1.7706 Z-0.2048
N1544 X5.4227 Y1.7782 Z-0.2278
N1545 X5.4122 Y1.7843 Z-0.249
N1546 X5.4052 Y1.7883 Z-0.2647
N1547 X5.3978 Y1.7926 Z-0.2834
N1548 X5.3889 Y1.7977 Z-0.3095
N1549 X5.3816 Y1.802 Z-0.3365
N1550 X5.3778 Y1.8042 Z-0.354
N1551 X5.2314 Y1.8887 Z-0.3551
N1552 X5.0802 Y1.976 Z-0.3547
N1553 X4.9338 Y2.0605 Z-0.3529
N1554 X4.7857 Y2.146 Z-0.3497
N1555 X4.635 Y2.233 Z-0.3449
N1556 X4.4852 Y2.3195 Z-0.3386
N1557 X4.3368 Y2.4052 Z-0.3309
N1558 X4.1885 Y2.4908 Z-0.3218
N1559 X4.0416 Y2.5756 Z-0.3113
N1560 X3.9091 Y2.6521 Z-0.3005
N1561 X3.765 Y2.7353 Z-0.2875
N1562 X3.626 Y2.8155 Z-0.2736
N1563 X3.5105 Y2.8822 Z-0.261
N1564 X3.395 Y2.9489 Z-0.2475
N1565 X3.2797 Y3.0155 Z-0.233
N1566 X3.1514 Y3.0896 Z-0.2159
N1567 X3.0117 Y3.1702 Z-0.1959
N1568 X2.8837 Y3.2441 Z-0.1763
N1569 X2.8126 Y3.2852 Z-0.1651
N1570 X2.7867 Y3.3001 Z-0.1618
N1571 X2.7607 Y3.3151 Z-0.1595
N1572 X2.7347 Y3.3302 Z-0.158
N1573 X2.7058 Y3.3468 Z-0.1575
N1574 X2.7027 Y3.3486 Z-0.1572
N1575 X2.6996 Y3.3504 Z-0.1563
N1576 X2.6966 Y3.3521 Z-0.1549
N1577 X2.6936 Y3.3539 Z-0.1535
N1578 X2.6904 Y3.3557 Z-0.1527
N1579 X2.6871 Y3.3576 Z-0.1524
N1580 G2 X2.6597 Y3.4601 I0.0375 J0.065
N1581 G1 X2.7027 Y3.5347
N1582 G2 X2.8052 Y3.5621 I0.065 J-0.0375
N1583 G1 X3.1594 Y3.3576
N1584 X3.1627 Y3.3557 Z-0.1527
N1585 X3.1659 Y3.3539 Z-0.1535
N1586 X3.1689 Y3.3521 Z-0.1549
N1587 X3.1719 Y3.3504 Z-0.1563
N1588 X3.1749 Y3.3486 Z-0.1572
N1589 X3.1781 Y3.3468 Z-0.1575
N1590 X3.2066 Y3.3304 Z-0.158
N1591 X3.2327 Y3.3153 Z-0.1594
N1592 X3.2587 Y3.3003 Z-0.1618
N1593 X3.2846 Y3.2854 Z-0.1651
N1594 X3.3492 Y3.2481 Z-0.1752
N1595 X3.4513 Y3.1891 Z-0.191
N1596 X3.5535 Y3.1301 Z-0.206
N1597 X3.6558 Y3.0711 Z-0.2203
N1598 X3.7581 Y3.012 Z-0.2338
N1599 X3.8605 Y2.9528 Z-0.2466
N1600 X3.976 Y2.8862 Z-0.2602
N1601 X4.1045 Y2.812 Z-0.2742
N1602 X4.2538 Y2.7258 Z-0.2891
N1603 X4.3979 Y2.6426 Z-0.3019
N1604 X4.5434 Y2.5586 Z-0.3135
N1605 X4.6904 Y2.4737 Z-0.3237
N1606 X4.8387 Y2.3881 Z-0.3326
N1607 X4.9871 Y2.3024 Z-0.34
N1608 X5.1368 Y2.2159 Z-0.3459
N1609 X5.2828 Y2.1317 Z-0.3503
N1610 X5.4332 Y2.0448 Z-0.3534
N1611 X5.4372 Y2.0425 Z-0.3343
N1612 X5.4443 Y2.0384 Z-0.307
N1613 X5.4528 Y2.0335 Z-0.2805
N1614 X5.4627 Y2.0278 Z-0.2549
N1615 X5.4739 Y2.0213 Z-0.2303
N1616 X5.4864 Y2.0141 Z-0.2065
N1617 X5.5001 Y2.0062 Z-0.1838
N1618 X5.5106 Y2.0002 Z-0.1684
N1619 X5.5208 Y1.9943 Z-0.1545
N1620 X5.535 Y1.9861 Z-0.1369
N1621 X5.5521 Y1.9762 Z-0.118
N1622 X5.5702 Y1.9658 Z-0.1003
N1623 X5.5891 Y1.9548 Z-0.0839
N1624 X5.6089 Y1.9434 Z-0.069
N1625 X5.6294 Y1.9316 Z-0.0554
N1626 X5.6505 Y1.9194 Z-0.0432
N1627 X5.6722 Y1.9069 Z-0.0326
N1628 X5.6943 Y1.8941 Z-0.0234
N1629 X5.7112 Y1.8843 Z-0.0176
N1630 X5.7283 Y1.8745 Z-0.0125
N1631 X5.7513 Y1.8612 Z-0.0071
N1632 X5.7745 Y1.8478 Z-0.0032
N1633 X5.7979 Y1.8343 Z-0.0009
N1634 X5.8157 Y1.824 Z-0.0001
N1635 X5.8308 Y1.8153
N1636 X5.8438 Y1.8078 Z-0.001
N1637 X5.8567 Y1.8003 Z-0.0028
N1638 X5.8726 Y1.7911 Z-0.006
N1639 X5.8883 Y1.7821 Z-0.0104
N1640 X5.9007 Y1.7749 Z-0.0149
N1641 X5.9128 Y1.7679 Z-0.02
N1642 X5.9276 Y1.7594 Z-0.0275
N1643 X5.9419 Y1.7512 Z-0.036
N1644 X5.9529 Y1.7448 Z-0.0436
N1645 X5.9635 Y1.7387 Z-0.0518
N1646 X5.9738 Y1.7327 Z-0.0607
N1647 X5.9836 Y1.7271 Z-0.0701
N1648 X5.9929 Y1.7217 Z-0.0801
N1649 X6.0016 Y1.7167 Z-0.0906
N1650 X6.0099 Y1.7119 Z-0.1017
N1651 X6.0176 Y1.7074 Z-0.1131
N1652 X6.0247 Y1.7034 Z-0.125
N1653 X6.7578 Y1.2801
N1654 X6.7586 Y1.2796 Z-0.1237
N1655 X6.768 Y1.2742 Z-0.1084
N1656 X6.7775 Y1.2687 Z-0.095
N1657 X6.7877 Y1.2628 Z-0.0823
N1658 X6.7963 Y1.2578 Z-0.0728
N1659 X6.8054 Y1.2526 Z-0.0637
N1660 X6.8197 Y1.2444 Z-0.0512
N1661 X6.8296 Y1.2386 Z-0.0436
N1662 X6.8449 Y1.2298 Z-0.0333
N1663 X6.8609 Y1.2205 Z-0.0243
N1664 X6.8774 Y1.2111 Z-0.0167
N1665 X6.8942 Y1.2013 Z-0.0104
N1666 X6.9114 Y1.1914 Z-0.0056
N1667 X6.9288 Y1.1814 Z-0.0023
N1668 X6.9463 Y1.1713 Z-0.0004
N1669 X6.9596 Y1.1636 Z0
N1670 X6.9823 Y1.1505 Z-0.0007
N1671 X7.0083 Y1.1355 Z-0.0033
N1672 X7.034 Y1.1206 Z-0.0076
N1673 X7.0594 Y1.1059 Z-0.0139
N1674 X7.0844 Y1.0915 Z-0.022
N1675 X7.1029 Y1.0809 Z-0.0293
N1676 X7.1175 Y1.0724 Z-0.036
N1677 X7.1356 Y1.062 Z-0.0452
N1678 X7.1558 Y1.0503 Z-0.057
N1679 X7.1726 Y1.0406 Z-0.0682
N1680 X7.1941 Y1.0282 Z-0.0846
N1681 X7.2147 Y1.0163 Z-0.1025
N1682 X7.2342 Y1.0051 Z-0.1218
N1683 X7.2435 Y0.9997 Z-0.1322
N1684 X7.2546 Y0.9933 Z-0.1453
N1685 X7.2694 Y0.9847 Z-0.1647
N1686 X7.2813 Y0.9779 Z-0.1821
N1687 X7.2959 Y0.9694 Z-0.2062
N1688 X7.3091 Y0.9618 Z-0.2313
N1689 X7.3165 Y0.9575 Z-0.2476
N1690 X7.3234 Y0.9535 Z-0.264
N1691 X7.3964 Y0.9114 Z-0.2557
N1692 X7.539 Y0.829 Z-0.2384
N1693 X7.6557 Y0.7617 Z-0.2231
N1694 X7.7593 Y0.7019 Z-0.2088
N1695 X7.8744 Y0.6354 Z-0.192
N1696 X7.8768 Y0.6341 Z-0.1915
N1697 X7.879 Y0.6327 Z-0.1907
N1698 X7.8812 Y0.6315 Z-0.1896
N1699 X7.8843 Y0.6297 Z-0.1882
N1700 X7.8875 Y0.6279 Z-0.1874
N1701 X7.8907 Y0.626 Z-0.1871
N1702 X7.8937 Y0.6244
N1703 X7.8967 Y0.6229 Z-0.1872
N1704 X7.8998 Y0.6215 Z-0.1873
N1705 X7.9029 Y0.6203 Z-0.1874
N1706 X7.9061 Y0.6192 Z-0.1876
N1707 X7.9093 Y0.6183 Z-0.1878
N1708 X7.9126 Y0.6175 Z-0.188
N1709 X7.9159 Y0.6168 Z-0.1883
N1710 X7.9192 Y0.6163 Z-0.1887
N1711 X7.9225 Y0.6159 Z-0.189
N1712 X7.9259 Y0.6157 Z-0.1894
N1713 X7.9292 Y0.6156 Z-0.1898
N1714 X7.9325 Y0.6157 Z-0.1903
N1715 X7.9358 Y0.6159 Z-0.1908
N1716 X7.9392 Y0.6163 Z-0.1913
N1717 X7.9424 Y0.6168 Z-0.1919
N1718 X7.9457 Y0.6175 Z-0.1925
N1719 X7.9489 Y0.6183 Z-0.1931
N1720 X7.9521 Y0.6192 Z-0.1937
N1721 X7.9552 Y0.6203 Z-0.1944
N1722 X7.9582 Y0.6215 Z-0.1951
N1723 X7.9612 Y0.6229 Z-0.1958
N1724 X7.9642 Y0.6244 Z-0.1965
N1725 X7.967 Y0.626 Z-0.1973
N1726 X7.9698 Y0.6277 Z-0.198
N1727 X7.9725 Y0.6296 Z-0.1988
N1728 X7.9751 Y0.6316 Z-0.1996
N1729 X7.9776 Y0.6337 Z-0.2004
N1730 X7.98 Y0.6359 Z-0.2013
N1731 X7.9822 Y0.6382 Z-0.2021
N1732 X7.9844 Y0.6406 Z-0.203
N1733 X7.9865 Y0.6432 Z-0.2038
N1734 X7.9884 Y0.6458 Z-0.2047
N1735 X7.9902 Y0.6485 Z-0.2055
N1736 X7.9919 Y0.6512 Z-0.2064
N1737 X8.0375 Y0.7302 Z-0.2307
N1738 X8.0391 Y0.7331 Z-0.2316
N1739 X8.0405 Y0.736 Z-0.2324
N1740 X8.0418 Y0.739 Z-0.2333
N1741 X8.043 Y0.742 Z-0.2341
N1742 X8.044 Y0.7451 Z-0.235
N1743 X8.0448 Y0.7483 Z-0.2358
N1744 X8.0456 Y0.7514 Z-0.2367
N1745 X8.0461 Y0.7547 Z-0.2375
N1746 X8.0465 Y0.7579 Z-0.2383
N1747 X8.0468 Y0.7612 Z-0.2391
N1748 X8.047 Y0.7644 Z-0.2398
N1749 X8.0469 Y0.7677 Z-0.2406
N1750 X8.0468 Y0.771 Z-0.2413
N1751 X8.0464 Y0.7743 Z-0.242
N1752 X8.046 Y0.7775 Z-0.2427
N1753 X8.0453 Y0.7808 Z-0.2434
N1754 X8.0446 Y0.784 Z-0.244
N1755 X8.0437 Y0.7872 Z-0.2447
N1756 X8.0426 Y0.7903 Z-0.2452
N1757 X8.0414 Y0.7934 Z-0.2458
N1758 X8.0401 Y0.7964 Z-0.2463
N1759 X8.0386 Y0.7994 Z-0.2468
N1760 X8.037 Y0.8024 Z-0.2473
N1761 X8.0353 Y0.8052 Z-0.2477
N1762 X8.0334 Y0.808 Z-0.2481
N1763 X8.0314 Y0.8107 Z-0.2485
N1764 X8.0293 Y0.8133 Z-0.2488
N1765 X8.0271 Y0.8158 Z-0.2491
N1766 X8.0248 Y0.8182 Z-0.2493
N1767 X8.0224 Y0.8206 Z-0.2495
N1768 X8.0198 Y0.8228 Z-0.2497
N1769 X8.0172 Y0.8249 Z-0.2498
N1770 X8.0145 Y0.8269 Z-0.2499
N1771 X8.0117 Y0.8287 Z-0.25
N1772 X8.0088 Y0.8305
N1773 X7.8914 Y0.8983
N1774 X7.8881 Y0.9002 Z-0.2503
N1775 X7.8849 Y0.902 Z-0.2512
N1776 X7.8819 Y0.9038 Z-0.2526
N1777 X7.8795 Y0.9052 Z-0.2537
N1778 X7.877 Y0.9066 Z-0.2545
N1779 X7.8744 Y0.9081 Z-0.255
N1780 X7.7316 Y0.9905 Z-0.2709
N1781 X7.6017 Y1.0655 Z-0.2842
N1782 X7.47 Y1.1415 Z-0.2965
N1783 X7.4648 Y1.1446 Z-0.2802
N1784 X7.4551 Y1.1502 Z-0.2547
N1785 X7.4465 Y1.1551 Z-0.2352
N1786 X7.4354 Y1.1615 Z-0.213
N1787 X7.4269 Y1.1664 Z-0.1978
N1788 X7.4196 Y1.1707 Z-0.1855
N1789 X7.404 Y1.1797 Z-0.1622
N1790 X7.3871 Y1.1894 Z-0.1401
N1791 X7.3689 Y1.2 Z-0.1192
N1792 X7.3519 Y1.2097 Z-0.1021
N1793 X7.3341 Y1.22 Z-0.0862
N1794 X7.3128 Y1.2323 Z-0.0694
N1795 X7.2906 Y1.2452 Z-0.0543
N1796 X7.2733 Y1.2551 Z-0.0441
N1797 X7.2526 Y1.2671 Z-0.0335
N1798 X7.2375 Y1.2758 Z-0.0269
N1799 X7.2252 Y1.2829 Z-0.0219
N1800 X7.2003 Y1.2973 Z-0.0136
N1801 X7.1813 Y1.3083 Z-0.0087
N1802 X7.1589 Y1.3212 Z-0.0043
N1803 X7.1427 Y1.3305 Z-0.0022
N1804 X7.1297 Y1.338 Z-0.0009
N1805 X7.1055 Y1.352 Z0
N1806 X7.0922 Y1.3597 Z-0.0005
N1807 X7.0805 Y1.3664 Z-0.0017
N1808 X7.0689 Y1.3731 Z-0.0036
N1809 X7.0573 Y1.3798 Z-0.0063
N1810 X7.0459 Y1.3864 Z-0.0096
N1811 X7.0347 Y1.3929 Z-0.0137
N1812 X7.0236 Y1.3993 Z-0.0185
N1813 X7.0127 Y1.4056 Z-0.024
N1814 X7.0022 Y1.4117 Z-0.0302
N1815 X6.9919 Y1.4176 Z-0.0371
N1816 X6.9819 Y1.4234 Z-0.0446
N1817 X6.9723 Y1.4289 Z-0.0528
N1818 X6.963 Y1.4343 Z-0.0616
N1819 X6.9542 Y1.4394 Z-0.071
N1820 X6.9458 Y1.4442 Z-0.081
N1821 X6.9379 Y1.4488 Z-0.0915
N1822 X6.9304 Y1.4531 Z-0.1026
N1823 X6.9235 Y1.4571 Z-0.1142
N1824 X6.9177 Y1.4604 Z-0.125
N1825 X6.1009 Y1.932
N1826 X6.0944 Y1.9358 Z-0.1128
N1827 X6.0872 Y1.9399 Z-0.101
N1828 X6.0794 Y1.9444 Z-0.0896
N1829 X6.071 Y1.9493 Z-0.0787
N1830 X6.0621 Y1.9544 Z-0.0684
N1831 X6.0526 Y1.9599 Z-0.0586
N1832 X6.0426 Y1.9657 Z-0.0495
N1833 X6.0322 Y1.9717 Z-0.041
N1834 X6.0212 Y1.978 Z-0.0333
N1835 X6.0099 Y1.9845 Z-0.0263
N1836 X5.9983 Y1.9913 Z-0.0201
N1837 X5.9863 Y1.9982 Z-0.0147
N1838 X5.974 Y2.0053 Z-0.01
N1839 X5.9615 Y2.0125 Z-0.0063
N1840 X5.9488 Y2.0199 Z-0.0034
N1841 X5.9359 Y2.0273 Z-0.0014
N1842 X5.9229 Y2.0348 Z-0.0003
N1843 X5.9063 Y2.0444 Z-0.0001
N1844 X5.8881 Y2.0549 Z-0.0009
N1845 X5.8648 Y2.0683 Z-0.0035
N1846 X5.8416 Y2.0817 Z-0.0077
N1847 X5.8186 Y2.095 Z-0.0135
N1848 X5.796 Y2.108 Z-0.0209
N1849 X5.7738 Y2.1208 Z-0.0299
N1850 X5.7521 Y2.1334 Z-0.0405
N1851 X5.7323 Y2.1448 Z-0.0518
N1852 X5.7206 Y2.1516 Z-0.0592
N1853 X5.7055 Y2.1603 Z-0.0697
N1854 X5.6859 Y2.1716 Z-0.085
N1855 X5.6672 Y2.1824 Z-0.1018
N1856 X5.6493 Y2.1927 Z-0.1198
N1857 X5.6324 Y2.2025 Z-0.1392
N1858 X5.6165 Y2.2117 Z-0.1597
N1859 X5.6017 Y2.2202 Z-0.1814
N1860 X5.5881 Y2.2281 Z-0.2041
N1861 X5.5757 Y2.2353 Z-0.2279
N1862 X5.5652 Y2.2413 Z-0.251
N1863 X5.5594 Y2.2447 Z-0.2654
N1864 X5.5523 Y2.2487 Z-0.2849
N1865 X5.5441 Y2.2535 Z-0.3116
N1866 X5.539 Y2.2564 Z-0.3319
N1867 X5.5365 Y2.2579 Z-0.3432
N1868 X5.3868 Y2.3443 Z-0.3365
N1869 X5.2371 Y2.4307 Z-0.3284
N1870 X5.0888 Y2.5163 Z-0.3188
N1871 X4.9433 Y2.6004 Z-0.3079
N1872 X4.7991 Y2.6836 Z-0.2958
N1873 X4.6681 Y2.7593 Z-0.2834
N1874 X4.5525 Y2.826 Z-0.2716
N1875 X4.4369 Y2.8927 Z-0.2589
N1876 X4.3344 Y2.9519 Z-0.2468
N1877 X4.232 Y3.011 Z-0.234
N1878 X4.1297 Y3.0701 Z-0.2205
N1879 X4.0274 Y3.1291 Z-0.2062
N1880 X3.9252 Y3.1881 Z-0.1912
N1881 X3.8231 Y3.2471 Z-0.1755
N1882 X3.7585 Y3.2844 Z-0.1653
N1883 X3.7326 Y3.2994 Z-0.162
N1884 X3.7066 Y3.3144 Z-0.1595
N1885 X3.6806 Y3.3294 Z-0.1581
N1886 X3.6504 Y3.3468 Z-0.1575
N1887 X3.6472 Y3.3486 Z-0.1572
N1888 X3.6441 Y3.3504 Z-0.1563
N1889 X3.6412 Y3.3521 Z-0.1549
N1890 X3.6382 Y3.3539 Z-0.1535
N1891 X3.635 Y3.3557 Z-0.1527
N1892 X3.6317 Y3.3576 Z-0.1524
N1893 G2 X3.6042 Y3.4601 I0.0375 J0.065
N1894 G1 X3.6473 Y3.5347
N1895 G2 X3.7498 Y3.5621 I0.065 J-0.0375
N1896 G1 X4.104 Y3.3576
N1897 X4.1072 Y3.3557 Z-0.1527
N1898 X4.1104 Y3.3539 Z-0.1535
N1899 X4.1135 Y3.3521 Z-0.1549
N1900 X4.1164 Y3.3504 Z-0.1563
N1901 X4.1195 Y3.3486 Z-0.1572
N1902 X4.1227 Y3.3468 Z-0.1575
N1903 X4.152 Y3.3299 Z-0.158
N1904 X4.178 Y3.3149 Z-0.1595
N1905 X4.204 Y3.2999 Z-0.1619
N1906 X4.2299 Y3.2849 Z-0.1652
N1907 X4.3074 Y3.2401 Z-0.1774
N1908 X4.4096 Y3.1812 Z-0.1931
N1909 X4.5118 Y3.1222 Z-0.208
N1910 X4.627 Y3.0556 Z-0.2239
N1911 X4.754 Y2.9823 Z-0.2404
N1912 X4.8953 Y2.9007 Z-0.2573
N1913 X5.0109 Y2.834 Z-0.2701
N1914 X5.1265 Y2.7673 Z-0.2821
N1915 X5.2472 Y2.6976 Z-0.2936
N1916 X5.39 Y2.6151 Z-0.3059
N1917 X5.5355 Y2.5311 Z-0.317
N1918 X5.6851 Y2.4447 Z-0.3269
N1919 X5.69 Y2.4419 Z-0.3085
N1920 X5.6986 Y2.437 Z-0.282
N1921 X5.7084 Y2.4313 Z-0.2565
N1922 X5.7196 Y2.4248 Z-0.2318
N1923 X5.7321 Y2.4176 Z-0.2081
N1924 X5.7423 Y2.4117 Z-0.191
N1925 X5.7506 Y2.4069 Z-0.1782
N1926 X5.7646 Y2.3989 Z-0.1585
N1927 X5.7808 Y2.3895 Z-0.1384
N1928 X5.798 Y2.3795 Z-0.1195
N1929 X5.8162 Y2.3691 Z-0.1018
N1930 X5.8351 Y2.3581 Z-0.0855
N1931 X5.8549 Y2.3467 Z-0.0705
N1932 X5.8754 Y2.3349 Z-0.057
N1933 X5.8943 Y2.324 Z-0.046
N1934 X5.9099 Y2.3149 Z-0.038
N1935 X5.9291 Y2.3039 Z-0.0293
N1936 X5.9515 Y2.291 Z-0.0208
N1937 X5.9742 Y2.2778 Z-0.0137
N1938 X5.9986 Y2.2637 Z-0.0078
N1939 X6.0262 Y2.2478 Z-0.0032
N1940 X6.0495 Y2.2343 Z-0.0009
N1941 X6.0759 Y2.2191 Z0
N1942 X6.0916 Y2.2101 Z-0.0006
N1943 X6.1045 Y2.2026 Z-0.0019
N1944 X6.1174 Y2.1951 Z-0.0039
N1945 X6.1302 Y2.1878 Z-0.0067
N1946 X6.1428 Y2.1805 Z-0.0102
N1947 X6.1552 Y2.1733 Z-0.0144
N1948 X6.1674 Y2.1663 Z-0.0193
N1949 X6.1823 Y2.1577 Z-0.0264
N1950 X6.1968 Y2.1493 Z-0.0344
N1951 X6.2081 Y2.1428 Z-0.0416
N1952 X6.2244 Y2.1334 Z-0.0535
N1953 X6.2348 Y2.1274 Z-0.0621
N1954 X6.2447 Y2.1217 Z-0.0713
N1955 X6.2543 Y2.1161 Z-0.0811
N1956 X6.2634 Y2.1109 Z-0.0913
N1957 X6.2719 Y2.106 Z-0.1021
N1958 X6.2799 Y2.1013 Z-0.1134
N1959 X6.2874 Y2.097 Z-0.125
N1960 X6.9674 Y1.7044
N1961 X6.9758 Y1.6995 Z-0.112
N1962 X6.9875 Y1.6928 Z-0.0962
N1963 X6.9959 Y1.688 Z-0.0862
N1964 X7.0046 Y1.6829 Z-0.0768
N1965 X7.0184 Y1.6749 Z-0.0635
N1966 X7.0329 Y1.6666 Z-0.0515
N1967 X7.0481 Y1.6578 Z-0.0407
N1968 X7.0637 Y1.6488 Z-0.0311
N1969 X7.0799 Y1.6394 Z-0.0227
N1970 X7.0965 Y1.6299 Z-0.0156
N1971 X7.1135 Y1.6201 Z-0.0098
N1972 X7.1307 Y1.6102 Z-0.0053
N1973 X7.1481 Y1.6001 Z-0.0022
N1974 X7.1656 Y1.59 Z-0.0004
N1975 X7.1789 Y1.5823 Z0
N1976 X7.2064 Y1.5664 Z-0.001
N1977 X7.2324 Y1.5514 Z-0.0037
N1978 X7.2581 Y1.5366 Z-0.0082
N1979 X7.2835 Y1.5219 Z-0.0145
N1980 X7.3023 Y1.511 Z-0.0204
N1981 X7.3208 Y1.5004 Z-0.0274
N1982 X7.336 Y1.4916 Z-0.0338
N1983 X7.3568 Y1.4796 Z-0.044
N1984 X7.3757 Y1.4687 Z-0.0547
N1985 X7.3968 Y1.4565 Z-0.0684
N1986 X7.4185 Y1.444 Z-0.0846
N1987 X7.4392 Y1.432 Z-0.1023
N1988 X7.4588 Y1.4207 Z-0.1215
N1989 X7.4772 Y1.4101 Z-0.1421
N1990 X7.486 Y1.405 Z-0.1531
N1991 X7.4964 Y1.399 Z-0.167
N1992 X7.5101 Y1.3911 Z-0.1873
N1993 X7.5211 Y1.3847 Z-0.2053
N1994 X7.5344 Y1.377 Z-0.2303
N1995 X7.5462 Y1.3702 Z-0.2561
N1996 X7.5564 Y1.3643 Z-0.2825
N1997 X7.5632 Y1.3604 Z-0.3031
N1998 X7.5692 Y1.357 Z-0.3248
N1999 X7.6285 Y1.3227 Z-0.321
N2000 X7.7586 Y1.2476 Z-0.3116
N2001 X7.8744 Y1.1807 Z-0.3023
N2002 X7.8772 Y1.1792 Z-0.3018
N2003 X7.8799 Y1.1776 Z-0.301
N2004 X7.8824 Y1.1761 Z-0.2998
N2005 X7.8855 Y1.1744 Z-0.2984
N2006 X7.8887 Y1.1725 Z-0.2975
N2007 X7.892 Y1.1706 Z-0.2972
N2008 X7.8949 Y1.169
N2009 X7.8979 Y1.1675 Z-0.2973
N2010 X7.901 Y1.1662
N2011 X7.9042 Y1.165 Z-0.2974
N2012 X7.9073 Y1.1639 Z-0.2975
N2013 X7.9106 Y1.163 Z-0.2976
N2014 X7.9139 Y1.1622 Z-0.2977
N2015 X7.9172 Y1.1615 Z-0.2979
N2016 X7.9205 Y1.1611 Z-0.298
N2017 X7.9238 Y1.1607 Z-0.2982
N2018 X7.9272 Y1.1605 Z-0.2984
N2019 X7.9305 Z-0.2987
N2020 X7.9339 Y1.1606 Z-0.2989
N2021 X7.9372 Y1.1609 Z-0.2992
N2022 X7.9406 Y1.1613 Z-0.2994
N2023 X7.9439 Y1.1618 Z-0.2997
N2024 X7.9471 Y1.1625 Z-0.3
N2025 X7.9504 Y1.1634 Z-0.3003
N2026 X7.9536 Y1.1644 Z-0.3007
N2027 X7.9567 Y1.1655 Z-0.301
N2028 X7.9598 Y1.1668 Z-0.3014
N2029 X7.9629 Y1.1682 Z-0.3018
N2030 X7.9658 Y1.1698 Z-0.3022
N2031 X7.9687 Y1.1715 Z-0.3025
N2032 X7.9715 Y1.1733 Z-0.303
N2033 X7.9742 Y1.1752 Z-0.3034
N2034 X7.9769 Y1.1772 Z-0.3038
N2035 X7.9794 Y1.1794 Z-0.3042
N2036 X7.9818 Y1.1817 Z-0.3047
N2037 X7.9842 Y1.1841 Z-0.3051
N2038 X7.9864 Y1.1866 Z-0.3055
N2039 X7.9885 Y1.1892 Z-0.306
N2040 X7.9905 Y1.1919 Z-0.3064
N2041 X7.9923 Y1.1946 Z-0.3069
N2042 X7.9941 Y1.1975 Z-0.3074
N2043 X8.0378 Y1.2733 Z-0.3193
N2044 X8.0394 Y1.2762 Z-0.3197
N2045 X8.0409 Y1.2792 Z-0.3202
N2046 X8.0422 Y1.2822 Z-0.3206
N2047 X8.0434 Y1.2854 Z-0.3211
N2048 X8.0445 Y1.2885 Z-0.3215
N2049 X8.0454 Y1.2917 Z-0.322
N2050 X8.0461 Y1.295 Z-0.3224
N2051 X8.0467 Y1.2983 Z-0.3228
N2052 X8.0472 Y1.3016 Z-0.3233
N2053 X8.0475 Y1.3049 Z-0.3237
N2054 X8.0477 Y1.3082 Z-0.3241
N2055 Y1.3116 Z-0.3245
N2056 X8.0476 Y1.3149 Z-0.3249
N2057 X8.0473 Y1.3182 Z-0.3252
N2058 X8.0468 Y1.3216 Z-0.3256
N2059 X8.0462 Y1.3249 Z-0.3259
N2060 X8.0455 Y1.3281 Z-0.3263
N2061 X8.0446 Y1.3314 Z-0.3266
N2062 X8.0436 Y1.3346 Z-0.3269
N2063 X8.0424 Y1.3377 Z-0.3272
N2064 X8.0411 Y1.3408 Z-0.3275
N2065 X8.0397 Y1.3438 Z-0.3277
N2066 X8.0381 Y1.3468 Z-0.328
N2067 X8.0364 Y1.3497 Z-0.3282
N2068 X8.0345 Y1.3525 Z-0.3284
N2069 X8.0326 Y1.3552 Z-0.3286
N2070 X8.0305 Y1.3578 Z-0.3288
N2071 X8.0283 Y1.3604 Z-0.3289
N2072 X8.026 Y1.3628 Z-0.3291
N2073 X8.0236 Y1.3652 Z-0.3292
N2074 X8.021 Y1.3674 Z-0.3293
N2075 X8.0184 Y1.3695
N2076 X8.0157 Y1.3715 Z-0.3294
N2077 X8.0129 Y1.3734
N2078 X8.01 Y1.3751
N2079 X7.8926 Y1.4429
N2080 X7.8893 Y1.4448 Z-0.3297
N2081 X7.8861 Y1.4467 Z-0.3306
N2082 X7.883 Y1.4484 Z-0.332
N2083 X7.8803 Y1.45 Z-0.3333
N2084 X7.8774 Y1.4517 Z-0.3341
N2085 X7.8744 Y1.4534 Z-0.3345
N2086 X7.7311 Y1.5362 Z-0.3413
N2087 X7.6178 Y1.6015 Z-0.3457
N2088 X7.6141 Y1.6037 Z-0.3303
N2089 X7.6082 Y1.6071 Z-0.3096
N2090 X7.5991 Y1.6124 Z-0.283
N2091 X7.5882 Y1.6187 Z-0.257
N2092 X7.5756 Y1.6259 Z-0.2318
N2093 X7.5615 Y1.6341 Z-0.2074
N2094 X7.546 Y1.643 Z-0.1841
N2095 X7.5291 Y1.6528 Z-0.162
N2096 X7.5109 Y1.6633 Z-0.1412
N2097 X7.4915 Y1.6745 Z-0.1217
N2098 X7.4711 Y1.6863 Z-0.1037
N2099 X7.4496 Y1.6987 Z-0.0871
N2100 X7.4274 Y1.7115 Z-0.072
N2101 X7.4043 Y1.7248 Z-0.0584
N2102 X7.3866 Y1.735 Z-0.0493
N2103 X7.3685 Y1.7455 Z-0.0408
N2104 X7.344 Y1.7596 Z-0.0309
N2105 X7.3144 Y1.7768 Z-0.0212
N2106 X7.2874 Y1.7923 Z-0.0141
N2107 X7.2553 Y1.8108 Z-0.0077
N2108 X7.223 Y1.8295 Z-0.0034
N2109 X7.1905 Y1.8483 Z-0.0008
N2110 X7.1554 Y1.8685 Z0
N2111 X7.132 Y1.882 Z-0.0008
N2112 X7.1086 Y1.8955 Z-0.0028
N2113 X7.0824 Y1.9107 Z-0.0064
N2114 X7.0564 Y1.9257 Z-0.0113
N2115 X7.0277 Y1.9423 Z-0.018
N2116 X6.9934 Y1.962 Z-0.0274
N2117 X6.9525 Y1.9857 Z-0.0401
N2118 X6.8885 Y2.0226 Z-0.0609
N2119 X6.8572 Y2.0407 Z-0.0702
N2120 X6.836 Y2.0529 Z-0.0757
N2121 X6.8233 Y2.0603 Z-0.0787
N2122 X6.8104 Y2.0677 Z-0.0813
N2123 X6.7946 Y2.0768 Z-0.0839
N2124 X6.7795 Y2.0856 Z-0.0858
N2125 X6.7665 Y2.0931 Z-0.087
N2126 X6.7528 Y2.101 Z-0.0876
N2127 X6.7361 Y2.1106 Z-0.0875
N2128 X6.7203 Y2.1198 Z-0.0866
N2129 X6.7086 Y2.1265 Z-0.0856
N2130 X6.6911 Y2.1366 Z-0.0831
N2131 X6.6763 Y2.1451 Z-0.0805
N2132 X6.6609 Y2.1541 Z-0.0771
N2133 X6.6436 Y2.164 Z-0.0728
N2134 X6.6178 Y2.1789 Z-0.0656
N2135 X6.5793 Y2.2011 Z-0.0534
N2136 X6.5138 Y2.239 Z-0.0323
N2137 X6.4801 Y2.2584 Z-0.0224
N2138 X6.4483 Y2.2768 Z-0.0143
N2139 X6.4226 Y2.2916 Z-0.0089
N2140 X6.3969 Y2.3065 Z-0.0046
N2141 X6.3709 Y2.3214 Z-0.0017
N2142 X6.3514 Y2.3327 Z-0.0004
N2143 X6.3339 Y2.3428 Z0
N2144 X6.3026 Y2.3609 Z-0.0007
N2145 X6.2674 Y2.3812 Z-0.0034
N2146 X6.2354 Y2.3997 Z-0.0078
N2147 X6.2036 Y2.4181 Z-0.0141
N2148 X6.1721 Y2.4362 Z-0.0225
N2149 X6.1468 Y2.4509 Z-0.031
N2150 X6.119 Y2.4669 Z-0.0423
N2151 X6.0913 Y2.4829 Z-0.0558
N2152 X6.0656 Y2.4977 Z-0.0707
N2153 X6.0451 Y2.5095 Z-0.0843
N2154 X6.0254 Y2.521 Z-0.0993
N2155 X6.011 Y2.5293 Z-0.1114
N2156 X5.997 Y2.5373 Z-0.124
N2157 X5.9793 Y2.5476 Z-0.1421
N2158 X5.9624 Y2.5573 Z-0.1613
N2159 X5.9465 Y2.5665 Z-0.1819
N2160 X5.9318 Y2.575 Z-0.2036
N2161 X5.9195 Y2.5821 Z-0.2244
N2162 X5.9112 Y2.5869 Z-0.2399
N2163 X5.903 Y2.5916 Z-0.2565
N2164 X5.8924 Y2.5977 Z-0.2816
N2165 X5.8832 Y2.603 Z-0.3076
N2166 X5.7378 Y2.687 Z-0.2953
N2167 X5.6067 Y2.7627 Z-0.2829
N2168 X5.5041 Y2.8219 Z-0.2724
N2169 X5.3886 Y2.8886 Z-0.2597
N2170 X5.2731 Y2.9553 Z-0.2461
N2171 X5.1577 Y3.0219 Z-0.2316
N2172 X5.0166 Y3.1034 Z-0.2126
N2173 X4.8768 Y3.1841 Z-0.1923
N2174 X4.7747 Y3.243 Z-0.1766
N2175 X4.7037 Y3.284 Z-0.1654
N2176 X4.6778 Y3.299 Z-0.162
N2177 X4.6518 Y3.314 Z-0.1596
N2178 X4.6258 Y3.329 Z-0.1581
N2179 X4.5949 Y3.3468 Z-0.1575
N2180 X4.5918 Y3.3486 Z-0.1572
N2181 X4.5887 Y3.3504 Z-0.1563
N2182 X4.5858 Y3.3521 Z-0.1549
N2183 X4.5827 Y3.3539 Z-0.1535
N2184 X4.5795 Y3.3557 Z-0.1527
N2185 X4.5762 Y3.3576 Z-0.1524
N2186 G2 X4.5488 Y3.4601 I0.0375 J0.065
N2187 G1 X4.5919 Y3.5347
N2188 G2 X4.6943 Y3.5621 I0.065 J-0.0375
N2189 G1 X5.0485 Y3.3576
N2190 X5.0518 Y3.3557 Z-0.1527
N2191 X5.055 Y3.3539 Z-0.1535
N2192 X5.0581 Y3.3521 Z-0.1549
N2193 X5.061 Y3.3504 Z-0.1563
N2194 X5.0641 Y3.3486 Z-0.1572
N2195 X5.0672 Y3.3468 Z-0.1575
N2196 X5.0981 Y3.329 Z-0.1581
N2197 X5.1241 Y3.314 Z-0.1596
N2198 X5.1501 Y3.299 Z-0.162
N2199 X5.176 Y3.284 Z-0.1654
N2200 X5.2406 Y3.2467 Z-0.1756
N2201 X5.3427 Y3.1878 Z-0.1913
N2202 X5.4578 Y3.1213 Z-0.2082
N2203 X5.5601 Y3.0622 Z-0.2224
N2204 X5.6625 Y3.0031 Z-0.2358
N2205 X5.7649 Y2.944 Z-0.2485
N2206 X5.8674 Y2.8848 Z-0.2605
N2207 X5.9829 Y2.8181 Z-0.2731
N2208 X6.1465 Y2.7237 Z-0.2894
N2209 X6.1516 Y2.7207 Z-0.2781
N2210 X6.1623 Y2.7146 Z-0.257
N2211 X6.1724 Y2.7087 Z-0.24
N2212 X6.1814 Y2.7035 Z-0.226
N2213 X6.1956 Y2.6953 Z-0.206
N2214 X6.213 Y2.6853 Z-0.1849
N2215 X6.2338 Y2.6733 Z-0.1628
N2216 X6.2487 Y2.6647 Z-0.1489
N2217 X6.263 Y2.6564 Z-0.1366
N2218 X6.2826 Y2.6451 Z-0.1213
N2219 X6.3079 Y2.6305 Z-0.104
N2220 X6.3315 Y2.6169 Z-0.0901
N2221 X6.3476 Y2.6076 Z-0.0815
N2222 X6.3734 Y2.5927 Z-0.0691
N2223 X6.4024 Y2.5759 Z-0.0571
N2224 X6.4277 Y2.5614 Z-0.0483
N2225 X6.4535 Y2.5464 Z-0.0403
N2226 X6.4845 Y2.5285 Z-0.0322
N2227 X6.5213 Y2.5073 Z-0.0244
N2228 X6.5495 Y2.491 Z-0.0196
N2229 X6.5844 Y2.4709 Z-0.0147
N2230 X6.6253 Y2.4473 Z-0.0105
N2231 X6.6662 Y2.4237 Z-0.0073
N2232 X6.7188 Y2.3933 Z-0.0048
N2233 X6.774 Y2.3614 Z-0.0032
N2234 X6.8471 Y2.3192 Z-0.0025
N2235 X6.9336 Y2.2692 Z-0.0029
N2236 X6.996 Y2.2333 Z-0.0043
N2237 X7.0439 Y2.2056 Z-0.0064
N2238 X7.0765 Y2.1868 Z-0.0084
N2239 X7.109 Y2.168 Z-0.0112
N2240 X7.1414 Y2.1493 Z-0.0145
N2241 X7.1738 Y2.1306 Z-0.019
N2242 X7.1996 Y2.1157 Z-0.0232
N2243 X7.2285 Y2.099 Z-0.029
N2244 X7.2508 Y2.0861 Z-0.0342
N2245 X7.2825 Y2.0678 Z-0.0429
N2246 X7.3091 Y2.0525 Z-0.0516
N2247 X7.3292 Y2.0409 Z-0.059
N2248 X7.3567 Y2.025 Z-0.0704
N2249 X7.3865 Y2.0078 Z-0.0851
N2250 X7.4155 Y1.991 Z-0.1018
N2251 X7.4435 Y1.9749 Z-0.1206
N2252 X7.4596 Y1.9656 Z-0.1331
N2253 X7.4753 Y1.9565 Z-0.1461
N2254 X7.4903 Y1.9478 Z-0.16
N2255 X7.5049 Y1.9394 Z-0.1749
N2256 X7.5164 Y1.9328 Z-0.1875
N2257 X7.5317 Y1.9239 Z-0.2064
N2258 X7.5479 Y1.9146 Z-0.2293
N2259 X7.559 Y1.9082 Z-0.2471
N2260 X7.5675 Y1.9033 Z-0.2622
N2261 X7.5783 Y1.8971 Z-0.2843
N2262 X7.5889 Y1.8909 Z-0.3102
N2263 X7.5977 Y1.8859 Z-0.3365
N2264 X7.6026 Y1.883 Z-0.3551
N2265 X7.6156 Y1.8755 Z-0.355
N2266 X7.7553 Y1.7948 Z-0.3538
N2267 X7.8744 Y1.7261 Z-0.3517
N2268 X7.8776 Y1.7243 Z-0.3514
N2269 X7.8807 Y1.7225 Z-0.3506
N2270 X7.8836 Y1.7208 Z-0.3492
N2271 X7.8867 Y1.719 Z-0.3478
N2272 X7.8899 Y1.7172 Z-0.3469
N2273 X7.8931 Y1.7153 Z-0.3466
N2274 X7.8961 Y1.7137
N2275 X7.8991 Y1.7122
N2276 X7.9022 Y1.7108
N2277 X7.9053 Y1.7096
N2278 X7.9085 Y1.7086 Z-0.3467
N2279 X7.9118 Y1.7076
N2280 X7.915 Y1.7069
N2281 X7.9184 Y1.7062
N2282 X7.9217 Y1.7058
N2283 X7.925 Y1.7054
N2284 X7.9284 Y1.7053
N2285 X7.9318 Y1.7052 Z-0.3468
N2286 X7.9351 Y1.7054
N2287 X7.9385 Y1.7056
N2288 X7.9418 Y1.7061
N2289 X7.9451 Y1.7066
N2290 X7.9484 Y1.7074 Z-0.3469
N2291 X7.9517 Y1.7082
N2292 X7.9549 Y1.7092
N2293 X7.958 Y1.7104
N2294 X7.9611 Y1.7117 Z-0.347
N2295 X7.9642 Y1.7131
N2296 X7.9672 Y1.7147
N2297 X7.9701 Y1.7164 Z-0.3471
N2298 X7.9729 Y1.7183
N2299 X7.9756 Y1.7202
N2300 X7.9783 Y1.7223 Z-0.3472
N2301 X7.9808 Y1.7245
N2302 X7.9833 Y1.7268
N2303 X7.9856 Y1.7292 Z-0.3473
N2304 X7.9879 Y1.7317
N2305 X7.99 Y1.7343 Z-0.3474
N2306 X7.992 Y1.737
N2307 X7.9938 Y1.7398
N2308 X7.9956 Y1.7427 Z-0.3475
N2309 X8.0387 Y1.8173 Z-0.3484
N2310 X8.0403 Y1.8203 Z-0.3485
N2311 X8.0418 Y1.8233
N2312 X8.0431 Y1.8264
N2313 X8.0443 Y1.8295 Z-0.3486
N2314 X8.0454 Y1.8327
N2315 X8.0463 Y1.836
N2316 X8.0471 Y1.8392 Z-0.3487
N2317 X8.0477 Y1.8425
N2318 X8.0482 Y1.8459
N2319 X8.0485 Y1.8492 Z-0.3488
N2320 X8.0487 Y1.8526
N2321 Y1.8559
N2322 X8.0486 Y1.8593 Z-0.3489
N2323 X8.0483 Y1.8627
N2324 X8.0479 Y1.866
N2325 X8.0473 Y1.8693 Z-0.349
N2326 X8.0466 Y1.8726
N2327 X8.0457 Y1.8759
N2328 X8.0447 Y1.8791
N2329 X8.0435 Y1.8822 Z-0.3491
N2330 X8.0422 Y1.8853
N2331 X8.0408 Y1.8884
N2332 X8.0392 Y1.8913
N2333 X8.0375 Y1.8942 Z-0.3492
N2334 X8.0357 Y1.8971
N2335 X8.0337 Y1.8998
N2336 X8.0316 Y1.9025
N2337 X8.0294 Y1.905
N2338 X8.0271 Y1.9075
N2339 X8.0247 Y1.9098
N2340 X8.0222 Y1.912
N2341 X8.0196 Y1.9142
N2342 X8.0169 Y1.9162
N2343 X8.0141 Y1.918 Z-0.3493
N2344 X8.0112 Y1.9198
N2345 X7.8937 Y1.9876
N2346 X7.8905 Y1.9895 Z-0.3495
N2347 X7.8873 Y1.9913 Z-0.3504
N2348 X7.8842 Y1.9931 Z-0.3518
N2349 X7.8811 Y1.9949 Z-0.3532
N2350 X7.8778 Y1.9968 Z-0.3541
N2351 X7.8744 Y1.9988 Z-0.3544
N2352 X7.7285 Y2.083 Z-0.3522
N2353 X7.588 Y2.1641 Z-0.3488
N2354 X7.4716 Y2.2313 Z-0.3449
N2355 X7.4663 Y2.2344 Z-0.3324
N2356 X7.4567 Y2.2399 Z-0.3134
N2357 X7.4493 Y2.2442 Z-0.3008
N2358 X7.4384 Y2.2505 Z-0.2842
N2359 X7.4257 Y2.2578 Z-0.2678
N2360 X7.4146 Y2.2642 Z-0.2544
N2361 X7.3929 Y2.2768 Z-0.2326
N2362 X7.3787 Y2.285 Z-0.2201
N2363 X7.3616 Y2.2948 Z-0.2065
N2364 X7.3479 Y2.3028 Z-0.1968
N2365 X7.3252 Y2.3158 Z-0.1822
N2366 X7.3166 Y2.3208 Z-0.1774
N2367 X7.2915 Y2.3353 Z-0.164
N2368 X7.2688 Y2.3484 Z-0.1538
N2369 X7.2505 Y2.359 Z-0.1463
N2370 X7.2319 Y2.3697 Z-0.1394
N2371 X7.2194 Y2.3769 Z-0.1353
N2372 X7.2068 Y2.3842 Z-0.1314
N2373 X7.1799 Y2.3997 Z-0.1239
N2374 X7.1528 Y2.4154 Z-0.1176
N2375 X7.1238 Y2.4321 Z-0.1122
N2376 X7.0938 Y2.4495 Z-0.1076
N2377 X7.0721 Y2.462 Z-0.105
N2378 X7.0461 Y2.477 Z-0.1027
N2379 X7.02 Y2.492 Z-0.1012
N2380 X6.9938 Y2.5072 Z-0.1005
N2381 X6.9672 Y2.5225
N2382 X6.9414 Y2.5374 Z-0.1013
N2383 X6.9121 Y2.5543 Z-0.1031
N2384 X6.88 Y2.5729 Z-0.1062
N2385 X6.8481 Y2.5913 Z-0.1108
N2386 X6.8249 Y2.6047 Z-0.1147
N2387 X6.796 Y2.6214 Z-0.1208
N2388 X6.7703 Y2.6362 Z-0.1274
N2389 X6.7419 Y2.6526 Z-0.1359
N2390 X6.718 Y2.6664 Z-0.1442
N2391 X6.6889 Y2.6832 Z-0.1561
N2392 X6.6671 Y2.6958 Z-0.1663
N2393 X6.638 Y2.7126 Z-0.1822
N2394 X6.6186 Y2.7238 Z-0.1947
N2395 X6.6034 Y2.7326 Z-0.2051
N2396 X6.5839 Y2.7438 Z-0.2207
N2397 X6.572 Y2.7507 Z-0.2309
N2398 X6.5518 Y2.7624 Z-0.2511
N2399 X6.543 Y2.7674 Z-0.2608
N2400 X6.5274 Y2.7765 Z-0.2805
N2401 X6.3858 Y2.8582 Z-0.2657
N2402 X6.2457 Y2.9391 Z-0.2495
N2403 X6.1303 Y3.0057 Z-0.2352
N2404 X6.028 Y3.0648 Z-0.2218
N2405 X5.9257 Y3.1238 Z-0.2076
N2406 X5.8235 Y3.1829 Z-0.1926
N2407 X5.7214 Y3.2418 Z-0.1769
N2408 X5.6439 Y3.2866 Z-0.1648
N2409 X5.6179 Y3.3015 Z-0.1616
N2410 X5.5919 Y3.3165 Z-0.1593
N2411 X5.5659 Y3.3316 Z-0.1579
N2412 X5.5395 Y3.3468 Z-0.1575
N2413 X5.5363 Y3.3487 Z-0.1572
N2414 X5.5332 Y3.3504 Z-0.1563
N2415 X5.5303 Y3.3521 Z-0.1549
N2416 X5.5272 Y3.3539 Z-0.1535
N2417 X5.524 Y3.3558 Z-0.1527
N2418 X5.5207 Y3.3576 Z-0.1524
N2419 G2 X5.4933 Y3.4601 I0.0375 J0.065
N2420 G1 X5.5364 Y3.5347
N2421 G2 X5.6388 Y3.5621 I0.065 J-0.0375
N2422 G1 X5.9931 Y3.3576
N2423 X5.9963 Y3.3557 Z-0.1527
N2424 X5.9995 Y3.3539 Z-0.1535
N2425 X6.0026 Y3.3521 Z-0.1549
N2426 X6.0055 Y3.3504 Z-0.1563
N2427 X6.0086 Y3.3486 Z-0.1572
N2428 X6.0118 Y3.3468 Z-0.1575
N2429 X6.0404 Y3.3303 Z-0.158
N2430 X6.0664 Y3.3153 Z-0.1594
N2431 X6.0924 Y3.3003 Z-0.1618
N2432 X6.1183 Y3.2853 Z-0.1651
N2433 X6.1894 Y3.2443 Z-0.1763
N2434 X6.3173 Y3.1704 Z-0.1959
N2435 X6.4571 Y3.0897 Z-0.2159
N2436 X6.5853 Y3.0157 Z-0.233
N2437 X6.7007 Y2.9491 Z-0.2474
N2438 X6.8162 Y2.8824 Z-0.2609
N2439 X6.9317 Y2.8157 Z-0.2735
N2440 X7.0707 Y2.7355 Z-0.2875
N2441 X7.2174 Y2.6507 Z-0.3007
N2442 X7.3499 Y2.5742 Z-0.3115
N2443 X7.4968 Y2.4894 Z-0.322
N2444 X7.6335 Y2.4105 Z-0.3304
N2445 X7.7598 Y2.3376 Z-0.3371
N2446 X7.8744 Y2.2714 Z-0.3422
N2447 X7.8771 Y2.2699 Z-0.3421
N2448 X7.8797 Y2.2684 Z-0.3417
N2449 X7.8823 Y2.2669 Z-0.3409
N2450 X7.8848 Y2.2654 Z-0.3397
N2451 X7.8878 Y2.2637 Z-0.3383
N2452 X7.891 Y2.2618 Z-0.3374
N2453 X7.8943 Y2.2599 Z-0.3371
N2454 X7.8973 Y2.2583
N2455 X7.9003 Y2.2568
N2456 X7.9034 Y2.2555
N2457 X7.9065 Y2.2543 Z-0.337
N2458 X7.9097 Y2.2532 Z-0.3369
N2459 X7.9129 Y2.2523 Z-0.3368
N2460 X7.9162 Y2.2515 Z-0.3367
N2461 X7.9195 Y2.2509 Z-0.3366
N2462 X7.9228 Y2.2504 Z-0.3364
N2463 X7.9262 Y2.2501 Z-0.3363
N2464 X7.9295 Y2.2499 Z-0.3361
N2465 X7.9329 Y2.2498 Z-0.3359
N2466 X7.9363 Y2.25 Z-0.3357
N2467 X7.9396 Y2.2502 Z-0.3355
N2468 X7.9429 Y2.2506 Z-0.3353
N2469 X7.9462 Y2.2512 Z-0.335
N2470 X7.9495 Y2.2519 Z-0.3348
N2471 X7.9528 Y2.2528 Z-0.3345
N2472 X7.956 Y2.2538 Z-0.3342
N2473 X7.9591 Y2.2549 Z-0.3339
N2474 X7.9622 Y2.2562 Z-0.3336
N2475 X7.9652 Y2.2576 Z-0.3333
N2476 X7.9682 Y2.2592 Z-0.333
N2477 X7.9711 Y2.2609 Z-0.3327
N2478 X7.9739 Y2.2627 Z-0.3323
N2479 X7.9766 Y2.2646 Z-0.332
N2480 X7.9793 Y2.2667 Z-0.3316
N2481 X7.9818 Y2.2689 Z-0.3313
N2482 X7.9843 Y2.2712 Z-0.3309
N2483 X7.9866 Y2.2736 Z-0.3305
N2484 X7.9888 Y2.2761 Z-0.3302
N2485 X7.9909 Y2.2786 Z-0.3298
N2486 X7.9929 Y2.2813 Z-0.3294
N2487 X7.9948 Y2.2841 Z-0.329
N2488 X7.9965 Y2.287 Z-0.3286
N2489 X8.0401 Y2.3624 Z-0.3187
N2490 X8.0417 Y2.3653 Z-0.3184
N2491 X8.0431 Y2.3683 Z-0.318
N2492 X8.0445 Y2.3714 Z-0.3176
N2493 X8.0457 Y2.3745 Z-0.3172
N2494 X8.0467 Y2.3777 Z-0.3168
N2495 X8.0476 Y2.3809 Z-0.3165
N2496 X8.0484 Y2.3842 Z-0.3161
N2497 X8.049 Y2.3875 Z-0.3158
N2498 X8.0495 Y2.3908 Z-0.3154
N2499 X8.0498 Y2.3941 Z-0.3151
N2500 X8.05 Y2.3975 Z-0.3147
N2501 Y2.4008 Z-0.3144
N2502 X8.0499 Y2.4042 Z-0.3141
N2503 X8.0496 Y2.4075 Z-0.3138
N2504 X8.0491 Y2.4108 Z-0.3134
N2505 X8.0485 Y2.4141 Z-0.3132
N2506 X8.0478 Y2.4174 Z-0.3129
N2507 X8.0469 Y2.4206 Z-0.3126
N2508 X8.0459 Y2.4238 Z-0.3123
N2509 X8.0447 Y2.427 Z-0.3121
N2510 X8.0434 Y2.4301 Z-0.3119
N2511 X8.042 Y2.4331 Z-0.3117
N2512 X8.0404 Y2.4361 Z-0.3115
N2513 X8.0387 Y2.439 Z-0.3113
N2514 X8.0369 Y2.4418 Z-0.3111
N2515 X8.0349 Y2.4445 Z-0.3109
N2516 X8.0328 Y2.4471 Z-0.3108
N2517 X8.0306 Y2.4497 Z-0.3107
N2518 X8.0283 Y2.4521 Z-0.3106
N2519 X8.0259 Y2.4545 Z-0.3105
N2520 X8.0234 Y2.4567 Z-0.3104
N2521 X8.0208 Y2.4588 Z-0.3103
N2522 X8.0181 Y2.4608
N2523 X8.0153 Y2.4627
N2524 X8.0124 Y2.4644
N2525 X7.8949 Y2.5323
N2526 X7.8916 Y2.5341 Z-0.3105
N2527 X7.8884 Y2.536 Z-0.3114
N2528 X7.8854 Y2.5378 Z-0.3128
N2529 X7.8828 Y2.5393 Z-0.314
N2530 X7.88 Y2.5408 Z-0.3149
N2531 X7.8772 Y2.5425 Z-0.3153
N2532 X7.8744 Y2.5441
N2533 X7.7222 Y2.632 Z-0.3035
N2534 X7.5962 Y2.7047 Z-0.2924
N2535 X7.4818 Y2.7708 Z-0.2815
N2536 X7.3792 Y2.83 Z-0.2709
N2537 X7.2767 Y2.8892 Z-0.2596
N2538 X7.1612 Y2.9559 Z-0.246
N2539 X7.0329 Y3.03 Z-0.2298
N2540 X6.893 Y3.1107 Z-0.2108
N2541 X6.7649 Y3.1846 Z-0.1922
N2542 X6.6628 Y3.2436 Z-0.1765
N2543 X6.5918 Y3.2846 Z-0.1652
N2544 X6.5659 Y3.2996 Z-0.1619
N2545 X6.5399 Y3.3146 Z-0.1595
N2546 X6.5138 Y3.3296 Z-0.158
N2547 X6.484 Y3.3468 Z-0.1575
N2548 X6.4809 Y3.3486 Z-0.1572
N2549 X6.4778 Y3.3504 Z-0.1563
N2550 X6.4749 Y3.3521 Z-0.1549
N2551 X6.4718 Y3.3539 Z-0.1535
N2552 X6.4686 Y3.3557 Z-0.1527
N2553 X6.4653 Y3.3576 Z-0.1524
N2554 G2 X6.4379 Y3.4601 I0.0375 J0.065
N2555 G1 X6.481 Y3.5347
N2556 G2 X6.5834 Y3.5621 I0.065 J-0.0375
N2557 G1 X6.9376 Y3.3576
N2558 X6.9409 Y3.3557 Z-0.1527
N2559 X6.9441 Y3.3539 Z-0.1535
N2560 X6.9471 Y3.3521 Z-0.1549
N2561 X6.9501 Y3.3504 Z-0.1563
N2562 X6.9532 Y3.3487 Z-0.1572
N2563 X6.9563 Y3.3468 Z-0.1575
N2564 X6.983 Y3.3314 Z-0.1579
N2565 X7.0091 Y3.3164 Z-0.1593
N2566 X7.0351 Y3.3014 Z-0.1616
N2567 X7.061 Y3.2864 Z-0.1648
N2568 X7.1579 Y3.2304 Z-0.1801
N2569 X7.2975 Y3.1498 Z-0.2011
N2570 X7.4257 Y3.0758 Z-0.2192
N2571 X7.541 Y3.0093 Z-0.2344
N2572 X7.6564 Y2.9426 Z-0.2488
N2573 X7.7589 Y2.8835 Z-0.2607
N2574 X7.8744 Y2.8168 Z-0.2733
N2575 X7.8774 Y2.815 Z-0.2734
N2576 X7.8803 Y2.8133 Z-0.273
N2577 X7.8832 Y2.8117 Z-0.2722
N2578 X7.886 Y2.8101 Z-0.2709
N2579 X7.889 Y2.8083 Z-0.2695
N2580 X7.8922 Y2.8065 Z-0.2686
N2581 X7.8955 Y2.8046 Z-0.2683
N2582 X7.8985 Y2.803
N2583 X7.9015 Y2.8015
N2584 X7.9046 Y2.8001 Z-0.2682
N2585 X7.9077 Y2.7989 Z-0.2681
N2586 X7.9109 Y2.7978 Z-0.2679
N2587 X7.9141 Y2.7969 Z-0.2677
N2588 X7.9174 Y2.7961 Z-0.2675
N2589 X7.9206 Y2.7954 Z-0.2672
N2590 X7.924 Y2.7949 Z-0.2669
N2591 X7.9273 Y2.7946 Z-0.2666
N2592 X7.9306 Y2.7944 Z-0.2662
N2593 X7.934 Y2.7943 Z-0.2658
N2594 X7.9373 Y2.7944 Z-0.2654
N2595 X7.9406 Y2.7946 Z-0.265
N2596 X7.944 Y2.795 Z-0.2645
N2597 X7.9472 Y2.7955 Z-0.264
N2598 X7.9505 Y2.7962 Z-0.2634
N2599 X7.9537 Y2.797 Z-0.2629
N2600 X7.9569 Y2.7979 Z-0.2623
N2601 X7.96 Y2.799 Z-0.2617
N2602 X7.9631 Y2.8003 Z-0.2611
N2603 X7.9661 Y2.8016 Z-0.2604
N2604 X7.969 Y2.8031 Z-0.2597
N2605 X7.9719 Y2.8048 Z-0.259
N2606 X7.9747 Y2.8065 Z-0.2583
N2607 X7.9773 Y2.8084 Z-0.2576
N2608 X7.98 Y2.8104 Z-0.2569
N2609 X7.9825 Y2.8125 Z-0.2561
N2610 X7.9849 Y2.8148 Z-0.2554
N2611 X7.9872 Y2.8171 Z-0.2546
N2612 X7.9893 Y2.8195 Z-0.2538
N2613 X7.9914 Y2.8221 Z-0.253
N2614 X7.9934 Y2.8247 Z-0.2522
N2615 X7.9952 Y2.8274 Z-0.2515
N2616 X7.9969 Y2.8302 Z-0.2507
N2617 X8.0421 Y2.9085 Z-0.2287
N2618 X8.0437 Y2.9113 Z-0.2279
N2619 X8.0451 Y2.9143 Z-0.2271
N2620 X8.0464 Y2.9173 Z-0.2264
N2621 X8.0475 Y2.9203 Z-0.2256
N2622 X8.0486 Y2.9235 Z-0.2248
N2623 X8.0494 Y2.9266 Z-0.224
N2624 X8.0502 Y2.9298 Z-0.2233
N2625 X8.0507 Y2.933 Z-0.2225
N2626 X8.0512 Y2.9363 Z-0.2218
N2627 X8.0515 Y2.9396 Z-0.2211
N2628 X8.0516 Y2.9429 Z-0.2204
N2629 Y2.9462 Z-0.2197
N2630 X8.0514 Y2.9494 Z-0.219
N2631 X8.0511 Y2.9527 Z-0.2183
N2632 X8.0506 Y2.956 Z-0.2177
N2633 X8.05 Y2.9593 Z-0.2171
N2634 X8.0493 Y2.9625 Z-0.2165
N2635 X8.0484 Y2.9657 Z-0.2159
N2636 X8.0473 Y2.9688 Z-0.2154
N2637 X8.0461 Y2.9719 Z-0.2149
N2638 X8.0448 Y2.975 Z-0.2144
N2639 X8.0433 Y2.978 Z-0.214
N2640 X8.0417 Y2.9809 Z-0.2136
N2641 X8.04 Y2.9838 Z-0.2132
N2642 X8.0381 Y2.9866 Z-0.2128
N2643 X8.0362 Y2.9893 Z-0.2125
N2644 X8.0341 Y2.9919 Z-0.2122
N2645 X8.0319 Y2.9944 Z-0.2119
N2646 X8.0295 Y2.9968 Z-0.2117
N2647 X8.0271 Y2.9992 Z-0.2115
N2648 X8.0246 Y3.0014 Z-0.2113
N2649 X8.022 Y3.0035 Z-0.2112
N2650 X8.0192 Y3.0055 Z-0.2111
N2651 X8.0164 Y3.0073
N2652 X8.0136 Y3.0091 Z-0.211
N2653 X7.8961 Y3.0769
N2654 X7.8929 Y3.0788 Z-0.2113
N2655 X7.8897 Y3.0806 Z-0.2122
N2656 X7.8866 Y3.0824 Z-0.2136
N2657 X7.8837 Y3.0841 Z-0.215
N2658 X7.8807 Y3.0858 Z-0.2158
N2659 X7.8775 Y3.0876 Z-0.2161
N2660 X7.8744 Y3.0894 Z-0.216
N2661 X7.7347 Y3.1701 Z-0.196
N2662 X7.6067 Y3.244 Z-0.1763
N2663 X7.5356 Y3.285 Z-0.1651
N2664 X7.5097 Y3.3 Z-0.1618
N2665 X7.4837 Y3.315 Z-0.1595
N2666 X7.4577 Y3.33 Z-0.158
N2667 X7.4286 Y3.3468 Z-0.1575
N2668 X7.4238 Y3.3496 Z-0.1571
N2669 X7.4191 Y3.3523 Z-0.1561
N2670 X7.4145 Y3.355 Z-0.1545
N2671 X7.4101 Y3.3575 Z-0.1523
N2672 X7.4059 Y3.3599 Z-0.1495
N2673 X7.402 Y3.3622 Z-0.1463
N2674 X7.3984 Y3.3642 Z-0.1426
N2675 X7.3953 Y3.3661 Z-0.1384
N2676 X7.3925 Y3.3677 Z-0.1338
N2677 X7.3902 Y3.369 Z-0.129
N2678 X7.3884 Y3.37 Z-0.1238
N2679 X7.3871 Y3.3708 Z-0.1185
N2680 X7.3863 Y3.3713 Z-0.113
N2681 X7.386 Y3.3714 Z-0.1075
N2682 G0 Z0.5906
(Parallel1)
N2684 X7.9253 Y0.1206
N2685 Z0.5906
N2686 Z0.0516
N2687 G1 Z0.032 F24
N2688 X7.925 Y0.1204 Z0.0266
N2689 X7.9242 Y0.12 Z0.0212
N2690 X7.923 Y0.1192 Z0.0159
N2691 X7.9212 Y0.1182 Z0.0109
N2692 X7.919 Y0.1169 Z0.0061
N2693 X7.9163 Y0.1154 Z0.0016
N2694 X7.9132 Y0.1136 Z-0.0026
N2695 X7.9098 Y0.1116 Z-0.0063
N2696 X7.906 Y0.1095 Z-0.0096
N2697 X7.9019 Y0.1071 Z-0.0123
N2698 X7.8976 Y0.1046 Z-0.0146
N2699 X7.8931 Y0.102 Z-0.0163
N2700 X7.8885 Y0.0994 Z-0.0174
N2701 X7.8838 Y0.0966 Z-0.0179
N2702 X7.8791 Y0.0939
N2703 X7.8744 Y0.0912 Z-0.0172
N2704 X7.8488 Y0.0764 Z-0.012
N2705 X7.823 Y0.0615 Z-0.0077
N2706 X7.7971 Y0.0466 Z-0.0044
N2707 X7.7711 Y0.0315 Z-0.002
N2708 X7.745 Y0.0165 Z-0.0005
N2709 X7.7158 Y-0.0004 Z0
N2710 X7.7126 Y-0.0022 Z0.0003
N2711 X7.7096 Y-0.004 Z0.0012
N2712 X7.7066 Y-0.0057 Z0.0025
N2713 Z0.0026
N2714 X7.7036 Y-0.0074 Z0.004
N2715 X7.7004 Y-0.0093 Z0.0048
N2716 X7.6971 Y-0.0112 Z0.0051
N2717 X7.5788 Y-0.0795
N2718 G2 X7.5394 Y-0.0113 I-0.0197 J0.0341
N2719 G1 X7.5427 Y-0.0094 Z0.0048
N2720 X7.5459 Y-0.0075 Z0.004
N2721 X7.549 Y-0.0058 Z0.0026
N2722 X7.552 Y-0.004 Z0.0012
N2723 X7.5551 Y-0.0022 Z0.0003
N2724 X7.5583 Y-0.0004 Z0
N2725 X7.5729 Y0.008 Z-0.0001
N2726 X7.5991 Y0.0232 Z-0.0011
N2727 X7.6251 Y0.0382 Z-0.0029
N2728 X7.651 Y0.0532 Z-0.0057
N2729 X7.6769 Y0.0681 Z-0.0095
N2730 X7.7026 Y0.0829 Z-0.0142
N2731 X7.7731 Y0.1236 Z-0.0295
N2732 X7.8744 Y0.1821 Z-0.0511
N2733 X7.8772 Y0.1837 Z-0.0515
N2734 X7.8799 Y0.1853
N2735 X7.8827 Y0.1869 Z-0.051
N2736 X7.8853 Y0.1884 Z-0.0502
N2737 X7.8879 Y0.1899 Z-0.049
N2738 X7.8909 Y0.1917 Z-0.0476
N2739 X7.8941 Y0.1935 Z-0.0467
N2740 X7.8974 Y0.1954 Z-0.0464
N2741 X7.9366 Y0.218
N2742 X7.9388 Y0.2194 Z-0.0465
N2743 X7.9409 Y0.2208
N2744 X7.9429 Y0.2224 Z-0.0467
N2745 X7.9448 Y0.2241 Z-0.0469
N2746 X7.9466 Y0.2259 Z-0.0472
N2747 X7.9483 Y0.2278 Z-0.0475
N2748 X7.9499 Y0.2297 Z-0.0478
N2749 X7.9514 Y0.2318 Z-0.0483
N2750 X7.9528 Y0.2339 Z-0.0487
N2751 X7.954 Y0.2361 Z-0.0493
N2752 X7.9551 Y0.2384 Z-0.0498
N2753 X7.956 Y0.2407 Z-0.0505
N2754 X7.9568 Y0.243 Z-0.0511
N2755 X7.9575 Y0.2454 Z-0.0518
N2756 X7.958 Y0.2478 Z-0.0526
N2757 X7.9584 Y0.2502 Z-0.0533
N2758 X7.9586 Y0.2526 Z-0.0542
N2759 Y0.2551 Z-0.055
N2760 X7.9585 Y0.2575 Z-0.0559
N2761 X7.9583 Y0.2599 Z-0.0568
N2762 X7.9579 Y0.2622 Z-0.0577
N2763 X7.9573 Y0.2646 Z-0.0586
N2764 X7.9566 Y0.2669 Z-0.0596
N2765 X7.9558 Y0.2691 Z-0.0605
N2766 X7.9548 Y0.2713 Z-0.0615
N2767 X7.9537 Y0.2733 Z-0.0624
N2768 X7.9524 Y0.2754 Z-0.0634
N2769 X7.9511 Y0.2773 Z-0.0644
N2770 X7.9495 Y0.2791 Z-0.0653
N2771 X7.9479 Y0.2809 Z-0.0663
N2772 X7.9462 Y0.2825 Z-0.0672
N2773 X7.9443 Y0.2841 Z-0.0681
N2774 X7.9424 Y0.2855 Z-0.069
N2775 X7.9403 Y0.2868 Z-0.0699
N2776 X7.9382 Y0.2879 Z-0.0707
N2777 X7.936 Y0.289 Z-0.0715
N2778 X7.9337 Y0.2899 Z-0.0723
N2779 X7.9314 Y0.2906 Z-0.0731
N2780 X7.929 Y0.2912 Z-0.0738
N2781 X7.9266 Y0.2917 Z-0.0744
N2782 X7.9241 Y0.292 Z-0.075
N2783 X7.9216 Y0.2922 Z-0.0756
N2784 X7.9191 Y0.2923 Z-0.0761
N2785 X7.9166 Y0.2922 Z-0.0766
N2786 X7.914 Y0.2919 Z-0.077
N2787 X7.9115 Y0.2915 Z-0.0774
N2788 X7.909 Y0.291 Z-0.0777
N2789 X7.9066 Y0.2903 Z-0.078
N2790 X7.9042 Y0.2895 Z-0.0782
N2791 X7.9018 Y0.2885 Z-0.0783
N2792 X7.8995 Y0.2874 Z-0.0784
N2793 X7.8972 Y0.2862 Z-0.0785
N2794 X7.8939 Y0.2843 Z-0.0787
N2795 X7.8907 Y0.2825 Z-0.0796
N2796 X7.8877 Y0.2807 Z-0.081
N2797 X7.8845 Y0.2789 Z-0.0825
N2798 X7.8812 Y0.2769 Z-0.0833
N2799 X7.8778 Y0.275 Z-0.0836
N2800 X7.8744 Y0.273 Z-0.0832
N2801 X7.7357 Y0.1929 Z-0.0551
N2802 X7.6216 Y0.127 Z-0.0308
N2803 X7.5447 Y0.0827 Z-0.0141
N2804 X7.5189 Y0.0678 Z-0.0094
N2805 X7.4931 Y0.0529 Z-0.0057
N2806 X7.4671 Y0.0379 Z-0.0029
N2807 X7.4411 Y0.0229 Z-0.001
N2808 X7.415 Y0.0078 Z-0.0001
N2809 X7.4009 Y-0.0004 Z0
N2810 X7.3977 Y-0.0022 Z0.0003
N2811 X7.3945 Y-0.004 Z0.0012
N2812 X7.3915 Y-0.0058 Z0.0026
N2813 X7.3885 Y-0.0075 Z0.004
N2814 X7.3853 Y-0.0094 Z0.0048
N2815 X7.382 Y-0.0113 Z0.0051
N2816 X7.2639 Y-0.0794
N2817 G2 X7.2246 Y-0.0112 I-0.0197 J0.0341
N2818 G1 X7.2278 Y-0.0094 Z0.0048
N2819 X7.2311 Y-0.0075 Z0.004
N2820 X7.2341 Y-0.0057 Z0.0026
N2821 Z0.0025
N2822 X7.2371 Y-0.004 Z0.0012
N2823 X7.2402 Y-0.0022 Z0.0003
N2824 X7.2434 Y-0.0004 Z0
N2825 X7.262 Y0.0104 Z-0.0002
N2826 X7.2881 Y0.0254 Z-0.0013
N2827 X7.3141 Y0.0404 Z-0.0033
N2828 X7.34 Y0.0554 Z-0.0062
N2829 X7.3659 Y0.0703 Z-0.0101
N2830 X7.3916 Y0.0852 Z-0.015
N2831 X7.4556 Y0.1222 Z-0.0289
N2832 X7.5569 Y0.1806 Z-0.0506
N2833 X7.6584 Y0.2392 Z-0.0715
N2834 X7.7599 Y0.2978 Z-0.0915
N2835 X7.8744 Y0.3639 Z-0.1133
N2836 X7.8777 Y0.3659 Z-0.1136
N2837 X7.8811 Y0.3678 Z-0.1133
N2838 X7.8843 Y0.3697 Z-0.1125
N2839 X7.8874 Y0.3715 Z-0.111
N2840 X7.8905 Y0.3732 Z-0.1096
N2841 X7.8937 Y0.3751 Z-0.1088
N2842 X7.897 Y0.377 Z-0.1085
N2843 X7.9361 Y0.3996
N2844 X7.9383 Y0.4009
N2845 X7.9404 Y0.4023 Z-0.1086
N2846 X7.9423 Y0.4039 Z-0.1087
N2847 X7.9442 Y0.4056 Z-0.1089
N2848 X7.946 Y0.4073 Z-0.1091
N2849 X7.9477 Y0.4092 Z-0.1094
N2850 X7.9493 Y0.4112 Z-0.1097
N2851 X7.9507 Y0.4132 Z-0.1101
N2852 X7.952 Y0.4153 Z-0.1105
N2853 X7.9532 Y0.4175 Z-0.111
N2854 X7.9543 Y0.4197 Z-0.1115
N2855 X7.9552 Y0.422 Z-0.112
N2856 X7.956 Y0.4243 Z-0.1126
N2857 X7.9566 Y0.4267 Z-0.1132
N2858 X7.9571 Y0.4291 Z-0.1139
N2859 X7.9574 Y0.4315 Z-0.1146
N2860 X7.9576 Y0.4339 Z-0.1153
N2861 X7.9577 Y0.4363 Z-0.116
N2862 X7.9575 Y0.4387 Z-0.1168
N2863 X7.9573 Y0.4411 Z-0.1176
N2864 X7.9569 Y0.4435 Z-0.1184
N2865 X7.9563 Y0.4458 Z-0.1192
N2866 X7.9556 Y0.4481 Z-0.12
N2867 X7.9548 Y0.4503 Z-0.1209
N2868 X7.9538 Y0.4525 Z-0.1217
N2869 X7.9527 Y0.4546 Z-0.1226
N2870 X7.9514 Y0.4566 Z-0.1234
N2871 X7.95 Y0.4585 Z-0.1243
N2872 X7.9485 Y0.4604 Z-0.1251
N2873 X7.9469 Y0.4621 Z-0.1259
N2874 X7.9452 Y0.4638 Z-0.1268
N2875 X7.9433 Y0.4653 Z-0.1276
N2876 X7.9414 Y0.4667 Z-0.1284
N2877 X7.9394 Y0.468 Z-0.1291
N2878 X7.9373 Y0.4692 Z-0.1299
N2879 X7.9351 Y0.4702 Z-0.1306
N2880 X7.9328 Y0.4711 Z-0.1313
N2881 X7.9305 Y0.4719 Z-0.1319
N2882 X7.9281 Y0.4726 Z-0.1325
N2883 X7.9257 Y0.473 Z-0.1331
N2884 X7.9233 Y0.4734 Z-0.1337
N2885 X7.9208 Y0.4736 Z-0.1342
N2886 X7.9183 Y0.4737 Z-0.1346
N2887 X7.9158 Y0.4736 Z-0.135
N2888 X7.9134 Y0.4733 Z-0.1354
N2889 X7.9109 Y0.473 Z-0.1357
N2890 X7.9084 Y0.4724 Z-0.136
N2891 X7.906 Y0.4718 Z-0.1362
N2892 X7.9036 Y0.471 Z-0.1364
N2893 X7.9013 Y0.47 Z-0.1366
N2894 X7.899 Y0.469
N2895 X7.8968 Y0.4678 Z-0.1367
N2896 X7.8935 Y0.4659 Z-0.1369
N2897 X7.8903 Y0.464 Z-0.1378
N2898 X7.8872 Y0.4623 Z-0.1392
N2899 X7.8842 Y0.4605 Z-0.1406
N2900 X7.881 Y0.4586 Z-0.1415
N2901 X7.8777 Y0.4567 Z-0.1418
N2902 X7.8744 Y0.4548 Z-0.1415
N2903 X7.7339 Y0.3737 Z-0.1164
N2904 X7.6078 Y0.3009 Z-0.0926
N2905 X7.5063 Y0.2423 Z-0.0725
N2906 X7.4048 Y0.1837 Z-0.0517
N2907 X7.3035 Y0.1253 Z-0.0301
N2908 X7.2331 Y0.0846 Z-0.0147
N2909 X7.2074 Y0.0697 Z-0.0099
N2910 X7.1815 Y0.0548 Z-0.0061
N2911 X7.1556 Y0.0398 Z-0.0032
N2912 X7.1296 Y0.0248 Z-0.0012
N2913 X7.1035 Y0.0097 Z-0.0002
N2914 X7.086 Y-0.0004 Z0
N2915 X7.0827 Y-0.0022 Z0.0003
N2916 X7.0796 Y-0.004 Z0.0012
N2917 X7.0766 Y-0.0057 Z0.0025
N2918 Y-0.0058
N2919 X7.0736 Y-0.0075 Z0.004
N2920 X7.0704 Y-0.0094 Z0.0048
N2921 X7.0671 Y-0.0113 Z0.0051
N2922 X6.949 Y-0.0795
N2923 G2 X6.8952 Y-0.065 I-0.0197 J0.0341
N2924 X6.9096 Y-0.0113 I0.0341 J0.0197
N2925 G1 X6.9129 Y-0.0094 Z0.0048
N2926 X6.9161 Y-0.0075 Z0.004
N2927 X6.9191 Y-0.0058 Z0.0025
N2928 X6.9221 Y-0.004 Z0.0012
N2929 X6.9253 Y-0.0022 Z0.0003
N2930 X6.9285 Y-0.0004 Z0
N2931 X6.9434 Y0.0083 Z-0.0001
N2932 X6.9695 Y0.0233 Z-0.0011
N2933 X6.9955 Y0.0383 Z-0.003
N2934 X7.0215 Y0.0533 Z-0.0058
N2935 X7.0473 Y0.0683 Z-0.0095
N2936 X7.0731 Y0.0831 Z-0.0142
N2937 X7.1743 Y0.1415 Z-0.0363
N2938 X7.3142 Y0.2223 Z-0.0655
N2939 X7.4285 Y0.2883 Z-0.0883
N2940 X7.543 Y0.3544 Z-0.1102
N2941 X7.6448 Y0.4132 Z-0.1288
N2942 X7.7466 Y0.472 Z-0.1466
N2943 X7.8744 Y0.5458 Z-0.1678
N2944 X7.8776 Y0.5476 Z-0.1681
N2945 X7.8809 Y0.5495 Z-0.1678
N2946 X7.884 Y0.5513 Z-0.1669
N2947 X7.887 Y0.553 Z-0.1655
N2948 X7.8901 Y0.5548 Z-0.1641
N2949 X7.8933 Y0.5567 Z-0.1633
N2950 X7.8966 Y0.5585 Z-0.163
N2951 X7.9357 Y0.5811
N2952 X7.9378 Y0.5824
N2953 X7.9399 Y0.5839 Z-0.1631
N2954 X7.9418 Y0.5854 Z-0.1632
N2955 X7.9437 Y0.5871 Z-0.1634
N2956 X7.9454 Y0.5888 Z-0.1636
N2957 X7.9471 Y0.5907 Z-0.1638
N2958 X7.9486 Y0.5926 Z-0.1641
N2959 X7.95 Y0.5946 Z-0.1644
N2960 X7.9513 Y0.5967 Z-0.1648
N2961 X7.9525 Y0.5989 Z-0.1652
N2962 X7.9535 Y0.6011 Z-0.1656
N2963 X7.9544 Y0.6034 Z-0.1661
N2964 X7.9552 Y0.6057 Z-0.1666
N2965 X7.9558 Y0.6081 Z-0.1671
N2966 X7.9563 Y0.6104 Z-0.1677
N2967 X7.9566 Y0.6128 Z-0.1683
N2968 X7.9567 Y0.6152 Z-0.1689
N2969 X7.9568 Y0.6176 Z-0.1695
N2970 X7.9566 Y0.62 Z-0.1702
N2971 X7.9564 Y0.6224 Z-0.1709
N2972 X7.9559 Y0.6248 Z-0.1716
N2973 X7.9554 Y0.6271 Z-0.1723
N2974 X7.9547 Y0.6294 Z-0.173
N2975 X7.9538 Y0.6316 Z-0.1737
N2976 X7.9528 Y0.6337 Z-0.1745
N2977 X7.9517 Y0.6358 Z-0.1752
N2978 X7.9505 Y0.6379 Z-0.176
N2979 X7.9491 Y0.6398 Z-0.1767
N2980 X7.9476 Y0.6417 Z-0.1774
N2981 X7.946 Y0.6434 Z-0.1781
N2982 X7.9442 Y0.6451 Z-0.1789
N2983 X7.9424 Y0.6466 Z-0.1796
N2984 X7.9405 Y0.648 Z-0.1802
N2985 X7.9385 Y0.6493 Z-0.1809
N2986 X7.9364 Y0.6505 Z-0.1815
N2987 X7.9342 Y0.6516 Z-0.1822
N2988 X7.932 Y0.6525 Z-0.1828
N2989 X7.9297 Y0.6533 Z-0.1833
N2990 X7.9273 Y0.6539 Z-0.1839
N2991 X7.925 Y0.6544 Z-0.1844
N2992 X7.9225 Y0.6548 Z-0.1848
N2993 X7.9201 Y0.655 Z-0.1853
N2994 X7.9176 Y0.6551 Z-0.1857
N2995 X7.9152 Y0.655 Z-0.186
N2996 X7.9127 Y0.6548 Z-0.1864
N2997 X7.9103 Y0.6544 Z-0.1867
N2998 X7.9078 Y0.6539 Z-0.1869
N2999 X7.9054 Y0.6533 Z-0.1871
N3000 X7.9031 Y0.6525 Z-0.1872
N3001 X7.9008 Y0.6516 Z-0.1874
N3002 X7.8985 Y0.6505
N3003 X7.8963 Y0.6493
N3004 X7.8931 Y0.6474 Z-0.1877
N3005 X7.8899 Y0.6456 Z-0.1886
N3006 X7.8868 Y0.6438 Z-0.19
N3007 X7.8838 Y0.6421 Z-0.1914
N3008 X7.8808 Y0.6403 Z-0.1922
N3009 X7.8776 Y0.6385 Z-0.1925
N3010 X7.8744 Y0.6367 Z-0.1923
N3011 X7.7594 Y0.5703 Z-0.1746
N3012 X7.607 Y0.4823 Z-0.1496
N3013 X7.4923 Y0.416 Z-0.1296
N3014 X7.3905 Y0.3573 Z-0.1111
N3015 X7.2889 Y0.2986 Z-0.0918
N3016 X7.1873 Y0.24 Z-0.0717
N3017 X7.0859 Y0.1814 Z-0.0509
N3018 X6.9846 Y0.123 Z-0.0292
N3019 X6.9141 Y0.0823 Z-0.0139
N3020 X6.8884 Y0.0674 Z-0.0093
N3021 X6.8625 Y0.0525 Z-0.0056
N3022 X6.8366 Y0.0375 Z-0.0028
N3023 X6.8106 Y0.0225 Z-0.001
N3024 X6.7844 Y0.0073 Z-0.0001
N3025 X6.771 Y-0.0004 Z0
N3026 X6.7678 Y-0.0022 Z0.0003
N3027 X6.7647 Y-0.004 Z0.0012
N3028 X6.7617 Y-0.0058 Z0.0026
N3029 X6.7586 Y-0.0075 Z0.004
N3030 X6.7554 Y-0.0094 Z0.0048
N3031 X6.7521 Y-0.0113 Z0.0051
N3032 X6.6341 Y-0.0794
N3033 G2 X6.5803 Y-0.065 I-0.0197 J0.0341
N3034 X6.5947 Y-0.0112 I0.0341 J0.0197
N3035 G1 X6.598 Y-0.0094 Z0.0048
N3036 X6.6012 Y-0.0075 Z0.004
N3037 X6.6042 Y-0.0057 Z0.0026
N3038 X6.6043 Z0.0025
N3039 X6.6072 Y-0.004 Z0.0012
N3040 X6.6104 Y-0.0022 Z0.0003
N3041 X6.6136 Y-0.0004 Z0
N3042 X6.6318 Y0.0102 Z-0.0002
N3043 X6.6579 Y0.0252 Z-0.0013
N3044 X6.6839 Y0.0403 Z-0.0033
N3045 X6.7099 Y0.0552 Z-0.0062
N3046 X6.7357 Y0.0701 Z-0.01
N3047 X6.7614 Y0.085 Z-0.0149
N3048 X6.8319 Y0.1257 Z-0.0303
N3049 X6.9332 Y0.1842 Z-0.0519
N3050 X7.0346 Y0.2427 Z-0.0727
N3051 X7.1362 Y0.3014 Z-0.0927
N3052 X7.2507 Y0.3675 Z-0.1144
N3053 X7.3899 Y0.4478 Z-0.1394
N3054 X7.5176 Y0.5216 Z-0.161
N3055 X7.6326 Y0.5879 Z-0.1794
N3056 X7.7463 Y0.6536 Z-0.1967
N3057 X7.8744 Y0.7276 Z-0.2151
N3058 X7.8775 Y0.7294 Z-0.2153
N3059 X7.8807 Y0.7312 Z-0.215
N3060 X7.8837 Y0.7329 Z-0.2141
N3061 X7.8866 Y0.7346 Z-0.2128
N3062 X7.8897 Y0.7364 Z-0.2113
N3063 X7.8929 Y0.7382 Z-0.2105
N3064 X7.8961 Y0.7401 Z-0.2102
N3065 X7.9353 Y0.7627
N3066 X7.9374 Y0.764
N3067 X7.9394 Y0.7654 Z-0.2103
N3068 X7.9413 Y0.767 Z-0.2104
N3069 X7.9432 Y0.7686 Z-0.2105
N3070 X7.9449 Y0.7703 Z-0.2107
N3071 X7.9465 Y0.7722 Z-0.2109
N3072 X7.948 Y0.7741 Z-0.2111
N3073 X7.9494 Y0.7761 Z-0.2114
N3074 X7.9507 Y0.7782 Z-0.2117
N3075 X7.9518 Y0.7803 Z-0.212
N3076 X7.9528 Y0.7825 Z-0.2124
N3077 X7.9537 Y0.7848 Z-0.2128
N3078 X7.9545 Y0.7871 Z-0.2133
N3079 X7.9551 Y0.7895 Z-0.2137
N3080 X7.9555 Y0.7918 Z-0.2142
N3081 X7.9558 Y0.7942 Z-0.2147
N3082 X7.956 Y0.7966 Z-0.2152
N3083 Y0.799 Z-0.2158
N3084 X7.9558 Y0.8014 Z-0.2163
N3085 X7.9556 Y0.8038 Z-0.2169
N3086 X7.9551 Y0.8061 Z-0.2175
N3087 X7.9546 Y0.8084 Z-0.2181
N3088 X7.9538 Y0.8107 Z-0.2187
N3089 X7.953 Y0.8129 Z-0.2194
N3090 X7.952 Y0.8151 Z-0.22
N3091 X7.9509 Y0.8172 Z-0.2206
N3092 X7.9496 Y0.8192 Z-0.2213
N3093 X7.9482 Y0.8211 Z-0.2219
N3094 X7.9467 Y0.823 Z-0.2225
N3095 X7.9451 Y0.8247 Z-0.2231
N3096 X7.9434 Y0.8264 Z-0.2237
N3097 X7.9416 Y0.8279 Z-0.2243
N3098 X7.9397 Y0.8294 Z-0.2249
N3099 X7.9377 Y0.8307 Z-0.2255
N3100 X7.9356 Y0.8319 Z-0.226
N3101 X7.9334 Y0.8329 Z-0.2266
N3102 X7.9312 Y0.8339 Z-0.2271
N3103 X7.9289 Y0.8347 Z-0.2275
N3104 X7.9266 Y0.8353 Z-0.228
N3105 X7.9243 Y0.8358 Z-0.2284
N3106 X7.9219 Y0.8362 Z-0.2288
N3107 X7.9194 Y0.8364 Z-0.2292
N3108 X7.917 Y0.8365 Z-0.2296
N3109 X7.9146 Z-0.2299
N3110 X7.9121 Y0.8363 Z-0.2301
N3111 X7.9097 Y0.8359 Z-0.2304
N3112 X7.9073 Y0.8354 Z-0.2306
N3113 X7.9049 Y0.8348 Z-0.2308
N3114 X7.9026 Y0.834 Z-0.2309
N3115 X7.9003 Y0.8331 Z-0.231
N3116 X7.8981 Y0.8321
N3117 X7.8959 Y0.8309 Z-0.2311
N3118 X7.8926 Y0.829 Z-0.2313
N3119 X7.8894 Y0.8272 Z-0.2322
N3120 X7.8864 Y0.8254 Z-0.2336
N3121 X7.8835 Y0.8238 Z-0.2349
N3122 X7.8805 Y0.822 Z-0.2358
N3123 X7.8775 Y0.8203 Z-0.2362
N3124 X7.8744 Y0.8185 Z-0.236
N3125 X7.7461 Y0.7444 Z-0.2191
N3126 X7.6077 Y0.6645 Z-0.1995
N3127 X7.481 Y0.5914 Z-0.1803
N3128 X7.379 Y0.5325 Z-0.1641
N3129 X7.277 Y0.4736 Z-0.147
N3130 X7.1752 Y0.4148 Z-0.1293
N3131 X7.0734 Y0.356 Z-0.1107
N3132 X6.9718 Y0.2974 Z-0.0914
N3133 X6.8702 Y0.2387 Z-0.0713
N3134 X6.7688 Y0.1802 Z-0.0504
N3135 X6.6675 Y0.1217 Z-0.0287
N3136 X6.6034 Y0.0847 Z-0.0148
N3137 X6.5777 Y0.0699 Z-0.01
N3138 X6.5519 Y0.0549 Z-0.0061
N3139 X6.526 Y0.04 Z-0.0032
N3140 X6.4999 Y0.0249 Z-0.0012
N3141 X6.4739 Y0.0099 Z-0.0002
N3142 X6.4561 Y-0.0004 Z0
N3143 X6.4529 Y-0.0022 Z0.0003
N3144 X6.4498 Y-0.004 Z0.0012
N3145 X6.4468 Y-0.0057 Z0.0025
N3146 X6.4437 Y-0.0075 Z0.004
N3147 X6.4405 Y-0.0094 Z0.0048
N3148 X6.4373 Y-0.0112 Z0.0051
N3149 X6.3191 Y-0.0794
N3150 G2 X6.2798 Y-0.0113 I-0.0197 J0.0341
N3151 G1 X6.2831 Y-0.0094 Z0.0048
N3152 X6.2863 Y-0.0075 Z0.004
N3153 X6.2893 Y-0.0058 Z0.0025
N3154 X6.2923 Y-0.004 Z0.0012
N3155 X6.2954 Y-0.0022 Z0.0003
N3156 X6.2986 Y-0.0004 Z0
N3157 X6.3158 Y0.0096 Z-0.0002
N3158 X6.3419 Y0.0246 Z-0.0012
N3159 X6.3679 Y0.0396 Z-0.0032
N3160 X6.3939 Y0.0546 Z-0.006
N3161 X6.4197 Y0.0695 Z-0.0099
N3162 X6.4454 Y0.0844 Z-0.0147
N3163 X6.5095 Y0.1214 Z-0.0286
N3164 X6.6108 Y0.1799 Z-0.0503
N3165 X6.7122 Y0.2384 Z-0.0712
N3166 X6.8137 Y0.297 Z-0.0913
N3167 X6.9154 Y0.3557 Z-0.1106
N3168 X7.0171 Y0.4145 Z-0.1291
N3169 X7.1319 Y0.4807 Z-0.1492
N3170 X7.2842 Y0.5687 Z-0.1742
N3171 X7.4109 Y0.6418 Z-0.1937
N3172 X7.5221 Y0.706 Z-0.2098
N3173 X7.6333 Y0.7702 Z-0.2251
N3174 X7.746 Y0.8353 Z-0.2397
N3175 X7.8744 Y0.9094 Z-0.2553
N3176 X7.8774 Y0.9112 Z-0.2554
N3177 X7.8805 Y0.9129 Z-0.255
N3178 X7.8834 Y0.9146 Z-0.2542
N3179 X7.8862 Y0.9162 Z-0.2529
N3180 X7.8892 Y0.918 Z-0.2514
N3181 X7.8924 Y0.9198 Z-0.2506
N3182 X7.8957 Y0.9217 Z-0.2503
N3183 X7.9349 Y0.9443
N3184 X7.9369 Y0.9456
N3185 X7.9389 Y0.947 Z-0.2504
N3186 X7.9408 Y0.9485
N3187 X7.9427 Y0.9501 Z-0.2506
N3188 X7.9444 Y0.9519 Z-0.2507
N3189 X7.946 Y0.9537 Z-0.2509
N3190 X7.9475 Y0.9556 Z-0.2511
N3191 X7.9488 Y0.9576 Z-0.2513
N3192 X7.9501 Y0.9597 Z-0.2516
N3193 X7.9512 Y0.9618 Z-0.2518
N3194 X7.9522 Y0.964 Z-0.2522
N3195 X7.9531 Y0.9663 Z-0.2525
N3196 X7.9538 Y0.9685 Z-0.2528
N3197 X7.9544 Y0.9709 Z-0.2532
N3198 X7.9548 Y0.9732 Z-0.2536
N3199 X7.9551 Y0.9756 Z-0.2541
N3200 X7.9552 Y0.978 Z-0.2545
N3201 Y0.9804 Z-0.255
N3202 X7.9551 Y0.9828 Z-0.2554
N3203 X7.9548 Y0.9852 Z-0.2559
N3204 X7.9544 Y0.9875 Z-0.2564
N3205 X7.9538 Y0.9898 Z-0.2569
N3206 X7.9531 Y0.9921 Z-0.2574
N3207 X7.9522 Y0.9943 Z-0.2579
N3208 X7.9512 Y0.9965 Z-0.2585
N3209 X7.9501 Y0.9986 Z-0.259
N3210 X7.9488 Y1.0006 Z-0.2595
N3211 X7.9475 Y1.0025 Z-0.26
N3212 X7.946 Y1.0044 Z-0.2606
N3213 X7.9444 Y1.0061 Z-0.2611
N3214 X7.9427 Y1.0078 Z-0.2616
N3215 X7.9408 Y1.0093 Z-0.2621
N3216 X7.9389 Y1.0108 Z-0.2625
N3217 X7.937 Y1.0121 Z-0.263
N3218 X7.9349 Y1.0133 Z-0.2635
N3219 X7.9327 Y1.0144 Z-0.2639
N3220 X7.9305 Y1.0153 Z-0.2643
N3221 X7.9283 Y1.0161 Z-0.2647
N3222 X7.926 Y1.0168 Z-0.2651
N3223 X7.9236 Y1.0173 Z-0.2655
N3224 X7.9212 Y1.0177 Z-0.2658
N3225 X7.9188 Y1.0179 Z-0.2661
N3226 X7.9164 Y1.018 Z-0.2664
N3227 X7.914 Z-0.2667
N3228 X7.9116 Y1.0178 Z-0.2669
N3229 X7.9092 Y1.0174 Z-0.2671
N3230 X7.9068 Y1.0169 Z-0.2673
N3231 X7.9044 Y1.0163 Z-0.2674
N3232 X7.9021 Y1.0156 Z-0.2675
N3233 X7.8999 Y1.0147 Z-0.2676
N3234 X7.8976 Y1.0136 Z-0.2677
N3235 X7.8955 Y1.0125
N3236 X7.8922 Y1.0106 Z-0.268
N3237 X7.889 Y1.0088 Z-0.2688
N3238 X7.886 Y1.007 Z-0.2702
N3239 X7.8832 Y1.0054 Z-0.2715
N3240 X7.8803 Y1.0037 Z-0.2724
N3241 X7.8774 Y1.002 Z-0.2727
N3242 X7.8744 Y1.0003
N3243 X7.7589 Y0.9336 Z-0.26
N3244 X7.6214 Y0.8543 Z-0.2439
N3245 X7.4765 Y0.7706 Z-0.2252
N3246 X7.3522 Y0.6988 Z-0.2081
N3247 X7.2165 Y0.6205 Z-0.1882
N3248 X7.077 Y0.5399 Z-0.1662
N3249 X6.9621 Y0.4736 Z-0.147
N3250 X6.8603 Y0.4148 Z-0.1293
N3251 X6.7585 Y0.3561 Z-0.1107
N3252 X6.6569 Y0.2974 Z-0.0914
N3253 X6.5553 Y0.2388 Z-0.0713
N3254 X6.4539 Y0.1802 Z-0.0504
N3255 X6.3526 Y0.1217 Z-0.0288
N3256 X6.2886 Y0.0847 Z-0.0148
N3257 X6.2629 Y0.0699 Z-0.01
N3258 X6.237 Y0.055 Z-0.0061
N3259 X6.2111 Y0.04 Z-0.0032
N3260 X6.1851 Y0.025 Z-0.0012
N3261 X6.159 Y0.0099 Z-0.0002
N3262 X6.1412 Y-0.0004 Z0
N3263 X6.138 Y-0.0022 Z0.0003
N3264 X6.1348 Y-0.004 Z0.0012
N3265 X6.1319 Y-0.0057 Z0.0025
N3266 X6.1288 Y-0.0075 Z0.004
N3267 X6.1256 Y-0.0094 Z0.0048
N3268 X6.1223 Y-0.0112 Z0.0051
N3269 X6.0042 Y-0.0794
N3270 G2 X5.9504 Y-0.065 I-0.0197 J0.0341
N3271 X5.9649 Y-0.0113 I0.0341 J0.0197
N3272 G1 X5.9681 Y-0.0094 Z0.0048
N3273 X5.9713 Y-0.0075 Z0.004
N3274 X5.9744 Y-0.0058 Z0.0025
N3275 X5.9774 Y-0.004 Z0.0012
N3276 X5.9805 Y-0.0022 Z0.0003
N3277 X5.9837 Y-0.0004 Z0
N3278 X6.0007 Y0.0095 Z-0.0002
N3279 X6.0268 Y0.0245 Z-0.0012
N3280 X6.0528 Y0.0395 Z-0.0031
N3281 X6.0788 Y0.0545 Z-0.006
N3282 X6.1046 Y0.0694 Z-0.0098
N3283 X6.1303 Y0.0843 Z-0.0146
N3284 X6.2008 Y0.125 Z-0.03
N3285 X6.3021 Y0.1835 Z-0.0516
N3286 X6.4036 Y0.242 Z-0.0724
N3287 X6.5051 Y0.3007 Z-0.0925
N3288 X6.6068 Y0.3593 Z-0.1118
N3289 X6.7085 Y0.4181 Z-0.1303
N3290 X6.8104 Y0.4769 Z-0.148
N3291 X6.9253 Y0.5432 Z-0.1671
N3292 X7.0648 Y0.6238 Z-0.189
N3293 X7.1979 Y0.7006 Z-0.2086
N3294 X7.3298 Y0.7768 Z-0.2267
N3295 X7.4735 Y0.8597 Z-0.245
N3296 X7.6096 Y0.9383 Z-0.261
N3297 X7.7341 Y1.0102 Z-0.2745
N3298 X7.8744 Y1.0912 Z-0.2885
N3299 X7.8773 Y1.0929 Z-0.2886
N3300 X7.8803 Y1.0946 Z-0.2882
N3301 X7.8831 Y1.0962 Z-0.2873
N3302 X7.8858 Y1.0978 Z-0.286
N3303 X7.8889 Y1.0996 Z-0.2846
N3304 X7.8921 Y1.1014 Z-0.2838
N3305 X7.8953 Y1.1033 Z-0.2835
N3306 X7.9345 Y1.1259
N3307 X7.9365 Y1.1272
N3308 X7.9385 Y1.1286
N3309 X7.9404 Y1.1301 Z-0.2836
N3310 X7.9422 Y1.1317 Z-0.2837
N3311 X7.9439 Y1.1334 Z-0.2838
N3312 X7.9455 Y1.1352 Z-0.2839
N3313 X7.9469 Y1.1371 Z-0.2841
N3314 X7.9483 Y1.1391 Z-0.2843
N3315 X7.9495 Y1.1412 Z-0.2845
N3316 X7.9507 Y1.1433 Z-0.2847
N3317 X7.9516 Y1.1455 Z-0.285
N3318 X7.9525 Y1.1477 Z-0.2852
N3319 X7.9532 Y1.15 Z-0.2855
N3320 X7.9538 Y1.1523 Z-0.2858
N3321 X7.9542 Y1.1547 Z-0.2862
N3322 X7.9545 Y1.1571 Z-0.2865
N3323 X7.9546 Y1.1595 Z-0.2868
N3324 Y1.1618 Z-0.2872
N3325 X7.9544 Y1.1642 Z-0.2876
N3326 X7.9541 Y1.1666 Z-0.288
N3327 X7.9537 Y1.1689 Z-0.2884
N3328 X7.9531 Y1.1712 Z-0.2888
N3329 X7.9524 Y1.1735 Z-0.2892
N3330 X7.9515 Y1.1757 Z-0.2896
N3331 X7.9505 Y1.1779 Z-0.29
N3332 X7.9494 Y1.18 Z-0.2905
N3333 X7.9482 Y1.182 Z-0.2909
